%
O32123 (NC Viewer Demo File)
(Using high feed G1 F500. instead of G0.)
(T1 D=0.5 CR=0. - ZMIN=0. - flat end mill)
(T3 D=0.125 CR=0.0625 - ZMIN=0.5 - ball end mill)
N10 G90 G94 G17 G69
N15 G20
N20 G53 G0 Z0.

(Adaptive1)
N30 T1 M6
N35 S7640 M3
N40 G54
N45 M8
N60 G0 X4.4764 Y2.9321
N65 G43 Z1.4 H1
N70 T3
N75 G0 Z0.5063
N80 G1 Z0.4563 F92.
N85 X4.4762 Y2.9319 Z0.4507
N90 X4.4754 Y2.9314 Z0.4452
N95 X4.4741 Y2.9306 Z0.4398
N100 X4.4723 Y2.9295 Z0.4346
N105 X4.47 Y2.928 Z0.4297
N110 X4.4672 Y2.9262 Z0.4251
N115 X4.4641 Y2.9242 Z0.4209
N120 X4.4606 Y2.922 Z0.4172
N125 X4.4567 Y2.9195 Z0.414
N130 X4.4526 Y2.9169 Z0.4113
N135 X4.4482 Y2.9141 Z0.4091
N140 X4.4437 Y2.9112 Z0.4076
N145 X4.439 Y2.9082 Z0.4066
N150 X4.4343 Y2.9052 Z0.4063
N155 G3 X4.2197 Y2.7332 I0.6867 J-1.0761
N160 X4.2259 Y2.6292 I0.0772 J-0.0476
N165 G2 X4.26 Y2.4941 I-0.2361 J-0.1314
N170 G1 Y0.2607
N175 G2 X4.1739 Y0.0562 I-0.2651 J-0.0087
N180 G1 X3.9437 Y-0.174
N185 G2 X3.7391 Y-0.2599 I-0.1954 J0.1788
N190 G1 X3.7091 Y-0.26
N195 X0.2759
N200 G2 X0.0563 Y-0.174 I-0.021 J0.2698
N205 G1 X-0.1739 Y0.0562
N210 G2 X-0.26 Y0.2607 I0.179 J0.1958
N215 G1 Y2.2393
N220 G2 X-0.1739 Y2.4438 I0.2651 J0.0087
N225 G1 X0.0563 Y2.674
N230 G2 X0.2609 Y2.7599 I0.1954 J-0.1788
N235 G1 X0.2909 Y2.76
N240 X3.979
N245 X3.994
N250 X4.0022 Y2.7599
N255 X4.0055 Y2.7604 Z0.4066
N260 X4.0088 Y2.7608 Z0.4075
N265 X4.0118 Y2.7613 Z0.4089
N270 X4.0146 Y2.7617 Z0.4108
N275 X4.0169 Y2.7625 Z0.4132
N280 X4.0187 Y2.7632 Z0.4161
N285 X4.0201 Y2.7637 Z0.4192
N290 X4.021 Y2.764 Z0.4225
N295 X4.0212 Y2.7641 Z0.4259
N300 G0 Z1.
N305 G1 X4.3196 Y2.4536 F500.
N310 G0 Z0.6246
N315 G1 Z0.5746 F92.
N320 X4.3195 Y2.4533 Z0.569
N325 X4.3192 Y2.4524 Z0.5635
N330 X4.3188 Y2.4509 Z0.5581
N335 X4.3182 Y2.4489 Z0.5529
N340 X4.3175 Y2.4462 Z0.548
N345 X4.3166 Y2.4431 Z0.5435
N350 X4.3156 Y2.4395 Z0.5393
N355 X4.3144 Y2.4355 Z0.5355
N360 X4.3132 Y2.4311 Z0.5323
N365 X4.3119 Y2.4264 Z0.5296
N370 X4.3104 Y2.4214 Z0.5274
N375 X4.309 Y2.4162 Z0.5259
N380 X4.3075 Y2.4109 Z0.5249
N385 X4.3059 Y2.4055 Z0.5246
N390 G3 X4.2599 Y2.1344 I1.2282 J-0.3479
N395 G2 X4.2318 Y2.0147 I-0.269 J0.
N400 G3 X4.2366 Y1.9746 I0.0538 J-0.0139
N405 X4.2375 Y1.9735 I0.0028 J0.0014
N410 G2 X4.2517 Y1.9621 I-0.1833 J-0.2431
N415 X4.3345 Y1.8493 I-0.1975 J-0.2317
N420 X4.3384 Y1.8323 I-0.046 J-0.0195
N425 G1 X4.3472 Y1.6576
N430 G2 X4.345 Y1.6402 I-0.0499 J-0.0025
N435 X4.2733 Y1.519 I-0.2908 J0.0902
N440 X4.261 Y1.5069 I-0.219 J0.2114
N445 G3 X4.26 Y1.5048 I0.0021 J-0.0023
N450 G2 X4.1873 Y1.3185 I-0.2687 J-0.0025
N455 G3 X4.1005 Y1.0736 I0.5073 J-0.3177
N460 X4.0718 Y0.7873 I1.9108 J-0.3361
N465 X4.0631 Y0.4732 I6.5791 J-0.3388
N470 G2 X3.9784 Y0.2285 I-0.5135 J0.0407
N475 X3.8856 Y0.1026 I-0.4336 J0.2224
N480 X3.6489 Y-0.0038 I-0.343 J0.4467
N485 X3.3117 Y-0.0462 I-0.3821 J1.6785
N490 X2.7097 Y-0.0582 I-0.5013 J10.0134
N495 G1 X2.5199 Y-0.0594
N500 X2.3301 Y-0.06
N505 X2.1402 Y-0.0602
N510 X1.9504 Y-0.06
N515 X1.6362
N520 X1.2434
N525 X0.4841
N530 G2 X0.2603 Y0.0048 I0.0109 J0.4565
N535 X0.1094 Y0.1076 I0.2763 J0.5679
N540 X-0.0013 Y0.3421 I0.4194 J0.3413
N545 X-0.0441 Y0.6529 I1.5248 J0.3681
N550 X-0.058 Y1.2548 I8.8886 J0.5064
N555 G1 X-0.0591 Y1.4119
N560 X-0.0599 Y1.569
N565 X-0.0602 Y1.7261
N570 X-0.0601 Y1.8832
N575 X-0.0595 Y2.0403
N580 G2 X0.0165 Y2.2611 I0.5081 J-0.0514
N585 X0.1065 Y2.3893 I0.5101 J-0.2625
N590 X0.3405 Y2.5008 I0.3387 J-0.4094
N595 X0.6512 Y2.5439 I0.3672 J-1.5061
N600 X1.1746 Y2.5582 I0.4987 J-8.7142
N605 G3 X1.2707 Y2.6225 I-0.0017 J0.1066
N610 X1.2758 Y2.6413 I-0.0449 J0.0217
N615 G1 X1.2761 Y2.6469 Z0.5249
N620 X1.2764 Y2.6525 Z0.5259
N625 X1.2767 Y2.6578 Z0.5274
N630 X1.277 Y2.663 Z0.5296
N635 X1.2773 Y2.6679 Z0.5323
N640 X1.2775 Y2.6725 Z0.5355
N645 X1.2778 Y2.6766 Z0.5393
N650 X1.278 Y2.6804 Z0.5435
N655 X1.2781 Y2.6836 Z0.548
N660 X1.2783 Y2.6863 Z0.5529
N665 X1.2784 Y2.6885 Z0.5581
N670 X1.2785 Y2.69 Z0.5635
N675 X1.2786 Y2.691 Z0.569
N680 Y2.6913 Z0.5746
N685 G0 Z1.
N690 G1 X4.2674 Y1.366 F500.
N695 G0 Z0.6246
N700 G1 Z0.5746 F92.
N705 X4.2671 Y1.3659 Z0.569
N710 X4.2663 Y1.3656 Z0.5635
N715 X4.2648 Y1.3651 Z0.5581
N720 X4.2628 Y1.3644 Z0.5529
N725 X4.2602 Y1.3635 Z0.548
N730 X4.2571 Y1.3624 Z0.5435
N735 X4.2536 Y1.3612 Z0.5393
N740 X4.2497 Y1.3598 Z0.5355
N745 X4.2453 Y1.3583 Z0.5323
N750 X4.2407 Y1.3567 Z0.5296
N755 X4.2358 Y1.355 Z0.5274
N760 X4.2307 Y1.3532 Z0.5259
N765 X4.2255 Y1.3514 Z0.5249
N770 X4.2202 Y1.3496 Z0.5246
N775 G3 X4.2038 Y1.3387 I0.013 J-0.0374
N780 G2 X4.1012 Y1.2605 I-0.2042 J0.1615
N785 G3 X3.972 Y1.1033 I0.1738 J-0.2745
N790 X3.902 Y0.852 I0.8001 J-0.3581
N795 X3.8778 Y0.644 I2.4888 J-0.396
N800 G2 X3.8215 Y0.443 I-0.7104 J0.0905
N805 X3.6063 Y0.2592 I-0.378 J0.2249
N810 X3.3557 Y0.1865 I-0.3806 J0.843
N815 X2.9125 Y0.1494 I-0.4687 J2.9317
N820 X2.2057 Y0.1414 I-0.5555 J17.7956
N825 G1 X2.0224 Y0.1403
N830 X1.8391 Y0.1399
N835 X1.6558 Y0.1401
N840 X1.394 Y0.14
N845 X0.8441
N850 G2 X0.6347 Y0.1421 I-0.0727 J3.1824
N855 X0.433 Y0.1937 I0.0337 J0.5518
N860 X0.254 Y0.413 I0.2375 J0.3766
N865 X0.1842 Y0.6645 I0.8741 J0.378
N870 X0.1489 Y1.1078 I3.0651 J0.4671
N875 X0.142 Y1.867 I18.1166 J0.5439
N880 X0.1831 Y2.0451 I0.6444 J-0.055
N885 X0.3676 Y2.2243 I0.3562 J-0.1821
N890 X0.6407 Y2.3115 I0.3962 J-0.7695
N895 X0.979 Y2.3463 I0.4108 J-2.331
N900 G3 X1.1619 Y2.3726 I-0.0414 J0.9401
N905 X1.2396 Y2.4941 I-0.0353 J0.1082
N910 G1 X1.2402 Y2.5024
N915 G3 X1.236 Y2.5215 I-0.05 J-0.0008
N920 G1 X1.2338 Y2.5266 Z0.5249
N925 X1.2316 Y2.5317 Z0.5259
N930 X1.2295 Y2.5366 Z0.5274
N935 X1.2274 Y2.5414 Z0.5296
N940 X1.2254 Y2.5459 Z0.5323
N945 X1.2236 Y2.5501 Z0.5355
N950 X1.222 Y2.5539 Z0.5393
N955 X1.2205 Y2.5573 Z0.5435
N960 X1.2192 Y2.5603 Z0.548
N965 X1.2181 Y2.5628 Z0.5529
N970 X1.2173 Y2.5647 Z0.5581
N975 X1.2166 Y2.5662 Z0.5635
N980 X1.2163 Y2.567 Z0.569
N985 X1.2161 Y2.5673 Z0.5746
N990 G0 Z1.
N995 G1 X4.1781 Y1.2601 F500.
N1000 G0 Z0.6246
N1005 G1 Z0.5746 F92.
N1010 X4.1778 Z0.569
N1015 X4.1769 Y1.2603 Z0.5635
N1020 X4.1754 Y1.2605 Z0.5581
N1025 X4.1732 Y1.2607 Z0.5529
N1030 X4.1705 Y1.2611 Z0.548
N1035 X4.1673 Y1.2615 Z0.5435
N1040 X4.1636 Y1.262 Z0.5393
N1045 X4.1595 Y1.2625 Z0.5355
N1050 X4.1549 Y1.2631 Z0.5323
N1055 X4.1501 Y1.2637 Z0.5296
N1060 X4.1449 Y1.2644 Z0.5274
N1065 X4.1396 Y1.2651 Z0.5259
N1070 X4.1341 Y1.2658 Z0.5249
N1075 X4.1285 Y1.2665 Z0.5246
N1080 G3 X4.1091 Y1.2641 I-0.0051 J-0.0392
N1085 G2 X4.0106 Y1.2401 I-0.1121 J0.2458
N1090 G3 X3.8648 Y1.1461 I0.0553 J-0.2458
N1095 X3.7559 Y0.939 I0.4438 J-0.3657
N1100 X3.6999 Y0.7372 I3.6045 J-1.1081
N1105 G2 X3.5007 Y0.5031 I-0.4069 J0.1444
N1110 X3.2064 Y0.3982 I-0.4334 J0.7508
N1115 X2.8165 Y0.3552 I-0.4563 J2.3465
N1120 X2.1097 Y0.3419 I-0.5938 J12.8322
N1125 G1 X1.9133 Y0.3407
N1130 X1.717 Y0.34
N1135 X1.5206 Y0.3398
N1140 X1.3242 Y0.3401
N1145 X1.0362 Y0.34
N1150 G2 X0.7744 Y0.3439 I-0.0728 J3.8845
N1155 X0.5339 Y0.4862 I0.0365 J0.3362
N1160 X0.4218 Y0.7208 I0.5208 J0.3929
N1165 X0.3631 Y1.0819 I1.6162 J0.4478
N1170 X0.3448 Y1.7098 I6.7381 J0.5114
N1175 X0.4752 Y1.9566 I0.3321 J-0.0176
N1180 X0.7324 Y2.081 I0.4062 J-0.5118
N1185 X0.9628 Y2.1297 I0.5279 J-1.927
N1190 G3 X1.14 Y2.1758 I-0.2065 J1.1596
N1195 X1.2048 Y2.2124 I-0.0685 J0.1967
N1200 X1.24 Y2.2962 I-0.0836 J0.0844
N1205 G1 Y2.4642
N1210 G3 X1.2355 Y2.4832 I-0.05 J-0.0017
N1215 G1 X1.2332 Y2.4882 Z0.5249
N1220 X1.2309 Y2.4933 Z0.5259
N1225 X1.2287 Y2.4982 Z0.5274
N1230 X1.2265 Y2.5029 Z0.5296
N1235 X1.2245 Y2.5074 Z0.5323
N1240 X1.2226 Y2.5115 Z0.5355
N1245 X1.2209 Y2.5153 Z0.5393
N1250 X1.2193 Y2.5187 Z0.5435
N1255 X1.218 Y2.5217 Z0.548
N1260 X1.2168 Y2.5241 Z0.5529
N1265 X1.216 Y2.5261 Z0.5581
N1270 X1.2153 Y2.5275 Z0.5635
N1275 X1.2149 Y2.5284 Z0.569
N1280 X1.2148 Y2.5286 Z0.5746
N1285 G0 Z1.
N1290 G1 X4.083 Y1.2137 F500.
N1295 G0 Z0.6246
N1300 G1 Z0.5746 F92.
N1305 X4.0828 Y1.2139 Z0.569
N1310 X4.0819 Y1.2143 Z0.5635
N1315 X4.0806 Y1.215 Z0.5581
N1320 X4.0786 Y1.216 Z0.5529
N1325 X4.0762 Y1.2172 Z0.548
N1330 X4.0733 Y1.2187 Z0.5435
N1335 X4.07 Y1.2204 Z0.5393
N1340 X4.0663 Y1.2223 Z0.5355
N1345 X4.0622 Y1.2244 Z0.5323
N1350 X4.0579 Y1.2266 Z0.5296
N1355 X4.0532 Y1.229 Z0.5274
N1360 X4.0485 Y1.2315 Z0.5259
N1365 X4.0435 Y1.234 Z0.5249
N1370 X4.0386 Y1.2365 Z0.5246
N1375 G3 X4.0194 Y1.2409 I-0.018 J-0.0352
N1380 G2 X3.8838 Y1.2397 I-0.0934 J3.0462
N1385 G3 X3.7178 Y1.1499 I0.0413 J-0.2744
N1390 X3.602 Y0.9767 I0.4295 J-0.4126
N1395 G2 X3.4838 Y0.8047 I-0.6047 J0.2887
N1400 X3.1906 Y0.6384 I-0.4858 J0.5149
N1405 X2.8312 Y0.5706 I-0.4733 J1.5221
N1410 X2.2821 Y0.5454 I-0.5392 J5.7607
N1415 G1 X2.0989 Y0.5431
N1420 X1.9156 Y0.5414
N1425 X1.7323 Y0.5402
N1430 X1.549 Y0.5395
N1435 X1.3657
N1440 X1.1825 Y0.54
N1445 X0.9992 Y0.541
N1450 G2 X0.7518 Y0.6701 I0.0147 J0.3299
N1455 X0.632 Y0.9007 I0.4828 J0.3972
N1460 X0.5671 Y1.2606 I1.5001 J0.4562
N1465 X0.5527 Y1.5219 I2.4048 J0.2636
N1470 X0.6739 Y1.746 I0.3205 J-0.0285
N1475 X0.8769 Y1.8631 I0.4314 J-0.5132
N1480 X1.0725 Y1.9382 I2.0001 J-4.918
N1485 G3 X1.1963 Y2. I-0.2726 J0.7008
N1490 X1.2401 Y2.0917 I-0.0767 J0.0929
N1495 G1 X1.24 Y2.2843
N1500 G3 X1.2355 Y2.3033 I-0.05 J-0.0017
N1505 G1 X1.2332 Y2.3084 Z0.5249
N1510 X1.2309 Y2.3134 Z0.5259
N1515 X1.2287 Y2.3183 Z0.5274
N1520 X1.2265 Y2.323 Z0.5296
N1525 X1.2245 Y2.3275 Z0.5323
N1530 X1.2226 Y2.3316 Z0.5355
N1535 X1.2209 Y2.3354 Z0.5393
N1540 X1.2193 Y2.3388 Z0.5435
N1545 X1.218 Y2.3418 Z0.548
N1550 X1.2168 Y2.3443 Z0.5529
N1555 X1.216 Y2.3462 Z0.5581
N1560 X1.2153 Y2.3476 Z0.5635
N1565 X1.2149 Y2.3485 Z0.569
N1570 X1.2148 Y2.3488 Z0.5746
N1575 G0 Z1.
N1580 G1 X3.9576 Y1.2089 F500.
N1585 G0 Z0.6246
N1590 G1 Z0.5746 F92.
N1595 X3.9573 Y1.2091 Z0.569
N1600 X3.9565 Y1.2096 Z0.5635
N1605 X3.9552 Y1.2103 Z0.5581
N1610 X3.9533 Y1.2114 Z0.5529
N1615 X3.951 Y1.2128 Z0.548
N1620 X3.9482 Y1.2145 Z0.5435
N1625 X3.945 Y1.2164 Z0.5393
N1630 X3.9414 Y1.2185 Z0.5355
N1635 X3.9375 Y1.2209 Z0.5323
N1640 X3.9332 Y1.2234 Z0.5296
N1645 X3.9288 Y1.226 Z0.5274
N1650 X3.9242 Y1.2288 Z0.5259
N1655 X3.9194 Y1.2316 Z0.5249
N1660 X3.9146 Y1.2345 Z0.5246
N1665 G3 X3.8958 Y1.24 I-0.0202 J-0.034
N1670 G1 X3.7391
N1675 G3 X3.5705 Y1.1643 I0.0235 J-0.2779
N1680 X3.4557 Y1.0571 I1.3356 J-1.5455
N1685 G2 X3.0205 Y0.8276 I-0.6511 J0.7074
N1690 X2.6331 Y0.7669 I-0.5069 J1.9691
N1695 X2.0315 Y0.7445 I-0.5797 J7.4716
N1700 X1.1936 Y0.741 I-0.584 J39.3351
N1705 X0.9497 Y0.8775 I0.0288 J0.3376
N1710 X0.8322 Y1.1094 I0.5039 J0.4012
N1715 X0.7874 Y1.3137 I0.9799 J0.3216
N1720 X0.8568 Y1.5065 I0.2873 J0.0055
N1725 X1.0346 Y1.6593 I0.5238 J-0.4294
N1730 G3 X1.1937 Y1.7645 I-5.9543 J9.1816
N1735 X1.24 Y1.8582 I-0.0733 J0.0945
N1740 G1 Y2.0744
N1745 G3 X1.2355 Y2.0934 I-0.05 J-0.0017
N1750 G1 X1.2332 Y2.0985 Z0.5249
N1755 X1.2309 Y2.1035 Z0.5259
N1760 X1.2287 Y2.1084 Z0.5274
N1765 X1.2265 Y2.1132 Z0.5296
N1770 X1.2245 Y2.1176 Z0.5323
N1775 X1.2226 Y2.1218 Z0.5355
N1780 X1.2209 Y2.1256 Z0.5393
N1785 X1.2193 Y2.129 Z0.5435
N1790 X1.218 Y2.1319 Z0.548
N1795 X1.2168 Y2.1344 Z0.5529
N1800 X1.216 Y2.1364 Z0.5581
N1805 X1.2153 Y2.1378 Z0.5635
N1810 X1.2149 Y2.1386 Z0.569
N1815 X1.2148 Y2.1389 Z0.5746
N1820 G0 Z1.
N1825 G1 X3.8009 Y1.2089 F500.
N1830 G0 Z0.6246
N1835 G1 Z0.5746 F92.
N1840 X3.8006 Y1.2091 Z0.569
N1845 X3.7998 Y1.2096 Z0.5635
N1850 X3.7985 Y1.2103 Z0.5581
N1855 X3.7966 Y1.2114 Z0.5529
N1860 X3.7943 Y1.2128 Z0.548
N1865 X3.7915 Y1.2145 Z0.5435
N1870 X3.7883 Y1.2164 Z0.5393
N1875 X3.7847 Y1.2185 Z0.5355
N1880 X3.7808 Y1.2209 Z0.5323
N1885 X3.7766 Y1.2234 Z0.5296
N1890 X3.7721 Y1.226 Z0.5274
N1895 X3.7675 Y1.2288 Z0.5259
N1900 X3.7627 Y1.2316 Z0.5249
N1905 X3.7579 Y1.2345 Z0.5246
N1910 G3 X3.7391 Y1.24 I-0.0202 J-0.034
N1915 G1 X3.5742
N1920 G3 X3.403 Y1.1952 I0.0247 J-0.4435
N1925 G2 X3.1615 Y1.0939 I-3.7446 J8.5957
N1930 X2.5995 Y0.9751 I-0.7265 J2.048
N1935 X2.0506 Y0.9473 I-0.5785 J5.9799
N1940 X1.396 Y0.9416 I-0.5236 J22.5917
N1945 X1.1522 Y1.0785 I0.0306 J0.3402
N1950 X1.104 Y1.2474 I0.1271 J0.1276
N1955 X1.1962 Y1.4332 I0.4279 J-0.0966
N1960 G3 X1.2533 Y1.5115 I-3.7652 J2.8047
N1965 X1.2597 Y1.6097 I-0.1045 J0.056
N1970 G2 X1.2403 Y1.7746 I0.5241 J0.1453
N1975 G1 X1.24 Y1.8582
N1980 G3 X1.2355 Y1.8772 I-0.05 J-0.0017
N1985 G1 X1.2332 Y1.8823 Z0.5249
N1990 X1.2309 Y1.8873 Z0.5259
N1995 X1.2287 Y1.8922 Z0.5274
N2000 X1.2265 Y1.8969 Z0.5296
N2005 X1.2245 Y1.9014 Z0.5323
N2010 X1.2226 Y1.9055 Z0.5355
N2015 X1.2209 Y1.9094 Z0.5393
N2020 X1.2193 Y1.9128 Z0.5435
N2025 X1.218 Y1.9157 Z0.548
N2030 X1.2168 Y1.9182 Z0.5529
N2035 X1.216 Y1.9201 Z0.5581
N2040 X1.2153 Y1.9215 Z0.5635
N2045 X1.2149 Y1.9224 Z0.569
N2050 X1.2148 Y1.9227 Z0.5746
N2055 G0 Z1.
N2060 G1 X3.636 Y1.2089 F500.
N2065 G0 Z0.6246
N2070 G1 Z0.5746 F92.
N2075 X3.6357 Y1.2091 Z0.569
N2080 X3.6349 Y1.2096 Z0.5635
N2085 X3.6336 Y1.2103 Z0.5581
N2090 X3.6317 Y1.2114 Z0.5529
N2095 X3.6294 Y1.2128 Z0.548
N2100 X3.6266 Y1.2145 Z0.5435
N2105 X3.6234 Y1.2164 Z0.5393
N2110 X3.6198 Y1.2185 Z0.5355
N2115 X3.6159 Y1.2209 Z0.5323
N2120 X3.6117 Y1.2234 Z0.5296
N2125 X3.6072 Y1.226 Z0.5274
N2130 X3.6026 Y1.2288 Z0.5259
N2135 X3.5978 Y1.2316 Z0.5249
N2140 X3.593 Y1.2345 Z0.5246
N2145 G3 X3.5742 Y1.24 I-0.0202 J-0.034
N2150 G1 X3.1994
N2155 G2 X3.1153 I-0.0417 J1.1649
N2160 G3 X2.7432 Y1.2076 I0.1841 J-4.267
N2165 G2 X1.7758 Y1.1631 I-0.9609 J10.3414
N2170 X1.5901 Y1.1627 I-0.0974 J2.0553
N2175 X1.4913 Y1.2711 I0.0227 J0.12
N2180 G3 X1.4272 Y1.3544 I-0.1291 J-0.0332
N2185 G2 X1.2747 Y1.5647 I0.3403 J0.4071
N2190 G3 X1.2635 Y1.5807 I-0.0454 J-0.0205
N2195 G1 X1.2594 Y1.5845 Z0.5249
N2200 X1.2554 Y1.5883 Z0.5259
N2205 X1.2515 Y1.592 Z0.5274
N2210 X1.2477 Y1.5955 Z0.5296
N2215 X1.2441 Y1.5989 Z0.5323
N2220 X1.2408 Y1.602 Z0.5355
N2225 X1.2378 Y1.6049 Z0.5393
N2230 X1.235 Y1.6074 Z0.5435
N2235 X1.2327 Y1.6096 Z0.548
N2240 X1.2307 Y1.6115 Z0.5529
N2245 X1.2291 Y1.613 Z0.5581
N2250 X1.228 Y1.614 Z0.5635
N2255 X1.2273 Y1.6147 Z0.569
N2260 X1.2271 Y1.6149 Z0.5746
N2265 G0 Z1.
N2270 G1 X3.1913 Y1.1952 F500.
N2275 G0 Z0.6246
N2280 G1 Z0.5746 F92.
N2285 X3.1911 Y1.1954 Z0.569
N2290 X3.1904 Y1.1961 Z0.5635
N2295 X3.1894 Y1.1973 Z0.5581
N2300 X3.1879 Y1.1988 Z0.5529
N2305 X3.1861 Y1.2008 Z0.548
N2310 X3.1839 Y1.2032 Z0.5435
N2315 X3.1813 Y1.2059 Z0.5393
N2320 X3.1785 Y1.209 Z0.5355
N2325 X3.1754 Y1.2124 Z0.5323
N2330 X3.172 Y1.2159 Z0.5296
N2335 X3.1685 Y1.2197 Z0.5274
N2340 X3.1648 Y1.2237 Z0.5259
N2345 X3.1611 Y1.2277 Z0.5249
N2350 X3.1573 Y1.2318 Z0.5246
N2355 G3 X3.1394 Y1.24 I-0.0188 J-0.0174
N2360 G1 X1.7601
N2365 G2 X1.4752 Y1.3205 I-0.0088 J0.5128
N2370 G1 X1.4721 Y1.3218 Z0.5249
N2375 X1.4691 Y1.3231 Z0.5258
N2380 X1.4663 Y1.3243 Z0.5272
N2385 X1.4637 Y1.3253 Z0.5291
N2390 X1.4613 Y1.3258 Z0.5316
N2395 X1.4594 Y1.3262 Z0.5344
N2400 X1.4579 Y1.3265 Z0.5375
N2405 X1.457 Y1.3266 Z0.5408
N2410 X1.4567 Y1.3267 Z0.5443
N2415 G0 Z1.
N2420 G1 X4.3214 Y2.5282 F500.
N2425 G0 Z0.6638
N2430 G1 Z0.6138 F92.
N2435 X4.3213 Y2.5279 Z0.6082
N2440 X4.321 Y2.527 Z0.6027
N2445 X4.3206 Y2.5255 Z0.5973
N2450 X4.32 Y2.5235 Z0.5921
N2455 X4.3193 Y2.5209 Z0.5872
N2460 X4.3183 Y2.5177 Z0.5826
N2465 X4.3173 Y2.5142 Z0.5784
N2470 X4.3161 Y2.5101 Z0.5747
N2475 X4.3149 Y2.5057 Z0.5714
N2480 X4.3135 Y2.501 Z0.5687
N2485 X4.3121 Y2.4961 Z0.5666
N2490 X4.3106 Y2.4909 Z0.565
N2495 X4.309 Y2.4856 Z0.5641
N2500 X4.3075 Y2.4802 Z0.5638
N2505 G3 X4.2599 Y2.2093 I1.2262 J-0.3549
N2510 G2 X4.1887 Y2.0293 I-0.2626 J-0.0002
N2515 G3 X4.197 Y1.9614 I0.0426 J-0.0292
N2520 G1 X4.1995 Y1.9592 Z0.5641
N2525 X4.2019 Y1.957 Z0.5649
N2530 X4.2042 Y1.955 Z0.5664
N2535 X4.2062 Y1.9531 Z0.5683
N2540 X4.2084 Y1.9519 Z0.5707
N2545 X4.2101 Y1.9509 Z0.5735
N2550 X4.2114 Y1.9502 Z0.5767
N2555 X4.2122 Y1.9497 Z0.58
N2560 X4.2124 Y1.9496 Z0.5834
N2565 G0 Z1.
N2570 G1 X4.3149 Y2.589 F500.
N2575 G0 Z0.7035
N2580 G1 Z0.6535 F92.
N2585 X4.3148 Y2.5887 Z0.6479
N2590 X4.3146 Y2.5877 Z0.6423
N2595 X4.3142 Y2.5862 Z0.6369
N2600 X4.3136 Y2.5842 Z0.6318
N2605 X4.3129 Y2.5816 Z0.6269
N2610 X4.3121 Y2.5784 Z0.6223
N2615 X4.3111 Y2.5748 Z0.6181
N2620 X4.31 Y2.5708 Z0.6144
N2625 X4.3089 Y2.5664 Z0.6111
N2630 X4.3076 Y2.5616 Z0.6084
N2635 X4.3063 Y2.5566 Z0.6063
N2640 X4.3049 Y2.5514 Z0.6047
N2645 X4.3034 Y2.5461 Z0.6038
N2650 X4.302 Y2.5407 Z0.6035
N2655 G3 X4.26 Y2.2689 I1.2332 J-0.3297
N2660 G2 X4.1486 Y2.0446 I-0.2635 J-0.0089
N2665 G3 X4.1588 Y1.9473 I0.0506 J-0.0438
N2670 X4.1761 Y1.9382 I0.037 J0.0482
N2675 X4.2413 Y1.9555 I0.0197 J0.0573
N2680 X4.157 Y2.0513 I-0.0483 J0.0425
N2685 X4.1289 Y2.0258 I0.035 J-0.067
N2690 X4.1469 Y1.9563 I0.0433 J-0.0259
N2695 X4.165 Y1.9491 I0.0268 J0.0421
N2700 G1 X4.1705 Y1.9481 Z0.6038
N2705 X4.176 Y1.9472 Z0.6047
N2710 X4.1813 Y1.9462 Z0.6063
N2715 X4.1864 Y1.9453 Z0.6084
N2720 X4.1912 Y1.9445 Z0.6111
N2725 X4.1957 Y1.9437 Z0.6144
N2730 X4.1999 Y1.943 Z0.6181
N2735 X4.2035 Y1.9423 Z0.6223
N2740 X4.2067 Y1.9417 Z0.6269
N2745 X4.2094 Y1.9413 Z0.6318
N2750 X4.2115 Y1.9409 Z0.6369
N2755 X4.213 Y1.9406 Z0.6423
N2760 X4.214 Y1.9405 Z0.6479
N2765 X4.2143 Y1.9404 Z0.6535
N2770 G0 Z1.
N2775 G1 X2.7369 Y1.1703 F500.
N2780 G0 Z0.7035
N2785 G1 Z0.6535 F92.
N2790 X2.7366 Y1.1704 Z0.6479
N2795 X2.7357 Y1.1706 Z0.6423
N2800 X2.7343 Y1.1711 Z0.6369
N2805 X2.7322 Y1.1718 Z0.6318
N2810 X2.7296 Y1.1726 Z0.6269
N2815 X2.7265 Y1.1736 Z0.6223
N2820 X2.723 Y1.1747 Z0.6181
N2825 X2.719 Y1.176 Z0.6144
N2830 X2.7146 Y1.1774 Z0.6111
N2835 X2.71 Y1.1789 Z0.6084
N2840 X2.705 Y1.1804 Z0.6063
N2845 X2.6999 Y1.1821 Z0.6047
N2850 X2.6946 Y1.1837 Z0.6038
N2855 X2.6893 Y1.1854 Z0.6035
N2860 G3 X2.4198 Y1.2401 I-0.3871 J-1.2164
N2865 X2.3748 Y1.2423 I-0.0374 J-0.3092
N2870 G1 X2.37 Y1.2413
N2875 X2.3652 Y1.2398
N2880 X2.3607 Y1.2378
N2885 X2.3564 Y1.2354
N2890 X2.3516 Y1.2326 Z0.6038
N2895 X2.3468 Y1.2298 Z0.6047
N2900 X2.3422 Y1.227 Z0.6063
N2905 X2.3377 Y1.2244 Z0.6084
N2910 X2.3335 Y1.2219 Z0.6111
N2915 X2.3296 Y1.2196 Z0.6144
N2920 X2.326 Y1.2174 Z0.6181
N2925 X2.3228 Y1.2155 Z0.6223
N2930 X2.32 Y1.2139 Z0.6269
N2935 X2.3176 Y1.2125 Z0.6318
N2940 X2.3158 Y1.2114 Z0.6369
N2945 X2.3145 Y1.2106 Z0.6423
N2950 X2.3137 Y1.2101 Z0.6479
N2955 X2.3134 Y1.21 Z0.6535
N2960 G0 Z1.
N2965 G1 X2.0263 Y2.8233 F500.
N2970 G0 Z0.7035
N2975 G1 Z0.6535 F92.
N2980 X2.0266 Y2.8232 Z0.6479
N2985 X2.0275 Y2.8229 Z0.6423
N2990 X2.029 Y2.8225 Z0.6369
N2995 X2.031 Y2.8219 Z0.6318
N3000 X2.0336 Y2.8211 Z0.6269
N3005 X2.0368 Y2.8202 Z0.6223
N3010 X2.0403 Y2.8191 Z0.6181
N3015 X2.0443 Y2.8179 Z0.6144
N3020 X2.0487 Y2.8166 Z0.6111
N3025 X2.0534 Y2.8152 Z0.6084
N3030 X2.0584 Y2.8138 Z0.6063
N3035 X2.0636 Y2.8122 Z0.6047
N3040 X2.0689 Y2.8107 Z0.6038
N3045 X2.0742 Y2.8091 Z0.6035
N3050 G3 X2.3448 Y2.76 I0.3619 J1.2241
N3055 X2.3898 Y2.7572 I0.1509 J2.1087
N3060 G1 X2.398 Y2.7583
N3065 X2.4013 Y2.7592 Z0.6037
N3070 X2.4044 Y2.7601 Z0.6046
N3075 X2.4074 Y2.7609 Z0.606
N3080 X2.4101 Y2.7617 Z0.608
N3085 X2.4123 Y2.7628 Z0.6104
N3090 X2.414 Y2.7637 Z0.6132
N3095 X2.4154 Y2.7643 Z0.6163
N3100 X2.4162 Y2.7647 Z0.6197
N3105 X2.4164 Y2.7649 Z0.6231
N3110 G0 Z1.
N3115 G1 X4.3174 Y2.6185 F500.
N3120 G0 Z0.7426
N3125 G1 Z0.6926 F92.
N3130 Y2.6182 Z0.687
N3135 X4.3171 Y2.6173 Z0.6815
N3140 X4.3167 Y2.6158 Z0.6761
N3145 X4.3161 Y2.6137 Z0.6709
N3150 X4.3154 Y2.6111 Z0.666
N3155 X4.3145 Y2.608 Z0.6614
N3160 X4.3135 Y2.6044 Z0.6573
N3165 X4.3124 Y2.6003 Z0.6535
N3170 X4.3112 Y2.5959 Z0.6503
N3175 X4.3099 Y2.5912 Z0.6476
N3180 X4.3085 Y2.5862 Z0.6454
N3185 X4.3071 Y2.581 Z0.6439
N3190 X4.3056 Y2.5757 Z0.6429
N3195 X4.3041 Y2.5703 Z0.6426
N3200 G3 X4.26 Y2.2989 I1.2305 J-0.3395
N3205 G2 X4.103 Y2.0548 I-0.2612 J-0.0045
N3210 G3 X4.1138 Y1.9398 I0.0381 J-0.0544
N3215 X4.1328 Y1.9349 I0.0248 J0.0552
N3220 X4.1667 Y1.9415 I0.0059 J0.0601
N3225 X4.1126 Y2.0594 I-0.0301 J0.0576
N3230 X4.0726 Y2.0424 I0.3073 J-0.7764
N3235 X4.0923 Y1.9499 I0.0275 J-0.0425
N3240 G1 X4.0969 Y1.9484
N3245 X4.1017 Y1.9473
N3250 X4.1065 Y1.9466
N3255 X4.1115 Y1.9465
N3260 X4.1171 Y1.9468 Z0.6429
N3265 X4.1226 Y1.9471 Z0.6439
N3270 X4.128 Y1.9474 Z0.6454
N3275 X4.1331 Y1.9477 Z0.6476
N3280 X4.138 Y1.948 Z0.6503
N3285 X4.1426 Y1.9483 Z0.6535
N3290 X4.1468 Y1.9485 Z0.6573
N3295 X4.1505 Y1.9487 Z0.6614
N3300 X4.1537 Y1.9489 Z0.666
N3305 X4.1564 Y1.9491 Z0.6709
N3310 X4.1586 Y1.9492 Z0.6761
N3315 X4.1601 Y1.9493 Z0.6815
N3320 X4.1611 Y1.9494 Z0.687
N3325 X4.1614 Z0.6926
N3330 G0 Z1.
N3335 G1 X2.8887 Y1.1792 F500.
N3340 G0 Z0.7426
N3345 G1 Z0.6926 F92.
N3350 X2.8884 Z0.687
N3355 X2.8875 Y1.1795 Z0.6815
N3360 X2.886 Y1.1799 Z0.6761
N3365 X2.8839 Y1.1805 Z0.6709
N3370 X2.8813 Y1.1813 Z0.666
N3375 X2.8782 Y1.1822 Z0.6614
N3380 X2.8746 Y1.1832 Z0.6573
N3385 X2.8706 Y1.1844 Z0.6535
N3390 X2.8662 Y1.1856 Z0.6503
N3395 X2.8615 Y1.187 Z0.6476
N3400 X2.8565 Y1.1884 Z0.6454
N3405 X2.8513 Y1.1899 Z0.6439
N3410 X2.846 Y1.1914 Z0.6429
N3415 X2.8406 Y1.193 Z0.6426
N3420 G3 X2.5697 Y1.24 I-0.3526 J-1.2268
N3425 G2 X2.4054 Y1.2959 I0.0019 J0.275
N3430 G3 X2.3516 Y1.285 I-0.017 J-0.0544
N3435 X2.3382 Y1.2708 I0.029 J-0.0407
N3440 G1 X2.3352 Y1.266 Z0.6429
N3445 X2.3323 Y1.2614 Z0.6439
N3450 X2.3294 Y1.2568 Z0.6454
N3455 X2.3267 Y1.2524 Z0.6476
N3460 X2.3241 Y1.2482 Z0.6503
N3465 X2.3217 Y1.2444 Z0.6535
N3470 X2.3195 Y1.2408 Z0.6573
N3475 X2.3175 Y1.2376 Z0.6614
N3480 X2.3158 Y1.2349 Z0.666
N3485 X2.3143 Y1.2326 Z0.6709
N3490 X2.3132 Y1.2308 Z0.6761
N3495 X2.3124 Y1.2295 Z0.6815
N3500 X2.3119 Y1.2287 Z0.687
N3505 X2.3117 Y1.2284 Z0.6926
N3510 G0 Z1.
N3515 G1 X1.3835 Y1.2073 F500.
N3520 G0 Z0.7426
N3525 G1 Z0.6926 F92.
N3530 X1.3834 Y1.2076 Z0.687
N3535 X1.3832 Y1.2085 Z0.6815
N3540 X1.383 Y1.21 Z0.6761
N3545 X1.3826 Y1.2121 Z0.6709
N3550 X1.3821 Y1.2148 Z0.666
N3555 X1.3815 Y1.218 Z0.6614
N3560 X1.3808 Y1.2217 Z0.6573
N3565 X1.38 Y1.2258 Z0.6535
N3570 X1.3792 Y1.2303 Z0.6503
N3575 X1.3783 Y1.2351 Z0.6476
N3580 X1.3774 Y1.2402 Z0.6454
N3585 X1.3764 Y1.2455 Z0.6439
N3590 X1.3754 Y1.2509 Z0.6429
N3595 X1.3743 Y1.2564 Z0.6426
N3600 G3 X1.2953 Y1.5198 I-1.255 J-0.2332
N3605 G2 X1.2678 Y1.6547 I0.2443 J0.12
N3610 G1 X1.268 Y1.9395
N3615 X1.2685 Y2.4941
N3620 X1.2687 Y2.5091
N3625 X1.2697 Y2.5241
N3630 G3 X1.2665 Y2.5434 I-0.05 J0.0016
N3635 G1 X1.2645 Y2.5486 Z0.6429
N3640 X1.2626 Y2.5538 Z0.6439
N3645 X1.2607 Y2.5588 Z0.6454
N3650 X1.2588 Y2.5637 Z0.6476
N3655 X1.2571 Y2.5682 Z0.6503
N3660 X1.2555 Y2.5725 Z0.6535
N3665 X1.254 Y2.5764 Z0.6573
N3670 X1.2527 Y2.5799 Z0.6614
N3675 X1.2515 Y2.583 Z0.666
N3680 X1.2506 Y2.5855 Z0.6709
N3685 X1.2498 Y2.5875 Z0.6761
N3690 X1.2493 Y2.589 Z0.6815
N3695 X1.2489 Y2.5898 Z0.687
N3700 X1.2488 Y2.5901 Z0.6926
N3705 G0 Z1.
N3710 G1 X1.8917 Y2.8247 F500.
N3715 G0 Z0.7426
N3720 G1 Z0.6926 F92.
N3725 X1.892 Y2.8246 Z0.687
N3730 X1.8929 Y2.8244 Z0.6815
N3735 X1.8944 Y2.8239 Z0.6761
N3740 X1.8964 Y2.8233 Z0.6709
N3745 X1.899 Y2.8225 Z0.666
N3750 X1.9021 Y2.8216 Z0.6614
N3755 X1.9057 Y2.8205 Z0.6573
N3760 X1.9097 Y2.8193 Z0.6535
N3765 X1.9141 Y2.818 Z0.6503
N3770 X1.9188 Y2.8166 Z0.6476
N3775 X1.9237 Y2.8151 Z0.6454
N3780 X1.9289 Y2.8135 Z0.6439
N3785 X1.9342 Y2.8119 Z0.6429
N3790 X1.9396 Y2.8103 Z0.6426
N3795 G3 X2.2099 Y2.7599 I0.3679 J1.2223
N3800 G2 X2.3655 Y2.7058 I-0.0059 J-0.2678
N3805 G3 X2.4198 Y2.7135 I0.0205 J0.0507
N3810 X2.4332 Y2.7277 I-0.0289 J0.0408
N3815 G1 X2.4362 Y2.7325 Z0.6429
N3820 X2.4391 Y2.7372 Z0.6439
N3825 X2.442 Y2.7417 Z0.6454
N3830 X2.4447 Y2.7461 Z0.6476
N3835 X2.4473 Y2.7503 Z0.6503
N3840 X2.4498 Y2.7541 Z0.6535
N3845 X2.452 Y2.7577 Z0.6573
N3850 X2.454 Y2.7608 Z0.6614
N3855 X2.4557 Y2.7636 Z0.666
N3860 X2.4572 Y2.7659 Z0.6709
N3865 X2.4583 Y2.7677 Z0.6761
N3870 X2.4591 Y2.769 Z0.6815
N3875 X2.4596 Y2.7698 Z0.687
N3880 X2.4598 Y2.7701 Z0.6926
N3885 G0 Z1.
N3890 G1 X1.2037 Y2.5649 F500.
N3895 G0 Z0.7426
N3900 G1 Z0.6926 F92.
N3905 X1.204 Y2.5648 Z0.687
N3910 X1.2049 Y2.5646 Z0.6815
N3915 X1.2064 Y2.5642 Z0.6761
N3920 X1.2085 Y2.5637 Z0.6709
N3925 X1.2111 Y2.563 Z0.666
N3930 X1.2143 Y2.5622 Z0.6614
N3935 X1.2179 Y2.5613 Z0.6573
N3940 X1.2219 Y2.5602 Z0.6535
N3945 X1.2264 Y2.5591 Z0.6503
N3950 X1.2311 Y2.5579 Z0.6476
N3955 X1.2361 Y2.5566 Z0.6454
N3960 X1.2413 Y2.5553 Z0.6439
N3965 X1.2467 Y2.5539 Z0.6429
N3970 X1.2521 Y2.5525 Z0.6426
N3975 G3 X1.2716 Y2.5497 I0.0226 J0.0883
N3980 G1 X1.2725
N3985 X1.2731 Y2.5498
N3990 X1.2735 Y2.5502
N3995 X1.2737 Y2.5507
N4000 X1.2739 Y2.5532 Z0.6428
N4005 X1.2741 Y2.5556 Z0.6432
N4010 X1.2742 Y2.558 Z0.644
N4015 X1.2739 Y2.5609 Z0.6455
N4020 X1.2735 Y2.5636 Z0.6475
N4025 X1.2733 Y2.5659 Z0.6499
N4030 X1.273 Y2.5677 Z0.6527
N4035 X1.2729 Y2.5691 Z0.6557
N4040 X1.2727 Y2.5699 Z0.6589
N4045 Y2.5702 Z0.6622
N4050 G0 Z1.
N4055 G1 X4.316 Y2.6491 F500.
N4060 G0 Z0.7819
N4065 G1 Z0.7319 F92.
N4070 X4.3159 Y2.6488 Z0.7263
N4075 X4.3157 Y2.6479 Z0.7208
N4080 X4.3153 Y2.6464 Z0.7154
N4085 X4.3147 Y2.6444 Z0.7102
N4090 X4.314 Y2.6417 Z0.7053
N4095 X4.3132 Y2.6386 Z0.7007
N4100 X4.3122 Y2.635 Z0.6965
N4105 X4.3111 Y2.631 Z0.6928
N4110 X4.3099 Y2.6266 Z0.6896
N4115 X4.3086 Y2.6218 Z0.6868
N4120 X4.3073 Y2.6168 Z0.6847
N4125 X4.3058 Y2.6116 Z0.6831
N4130 X4.3044 Y2.6063 Z0.6822
N4135 X4.3029 Y2.6009 Z0.6819
N4140 G3 X4.26 Y2.3293 I1.232 J-0.334
N4145 G2 X4.0453 Y2.0651 I-0.2608 J-0.0074
N4150 G3 X4.0538 Y1.9324 I0.0225 J-0.0652
N4155 G1 X4.0689 Y1.9294
N4160 G3 X4.0939 Y1.9321 I0.0084 J0.0389
N4165 X4.0735 Y2.0671 I-0.0297 J0.0645
N4170 X4.0539 Y2.067 I-0.0092 J-0.0704
N4175 X4.0031 Y2.0606 I0.726 J-6.0139
N4180 X4.009 Y1.9383 I0.0109 J-0.0608
N4185 G1 X4.0123 Y1.9387
N4190 G3 X4.0089 Y2.0614 I-0.0047 J0.0612
N4195 X3.9442 Y2.0572 I-0.0185 J-0.218
N4200 X3.9789 Y1.9392 I0.0244 J-0.057
N4205 G1 X3.994 Y1.9388
N4210 G3 X4.0159 Y1.9494 I-0.001 J0.0303
N4215 X3.967 Y2.0611 I-0.0513 J0.0441
N4220 G1 X3.919
N4225 G3 X3.9205 Y1.9383 I0.0027 J-0.0614
N4230 G1 X3.949 Y1.9389
N4235 G3 X3.9724 Y1.9513 I-0.0011 J0.0303
N4240 X3.919 Y2.0611 I-0.0558 J0.0408
N4245 G1 X3.874
N4250 G3 Y1.9383 I0.0013 J-0.0614
N4255 G1 X3.904 Y1.9389
N4260 G3 X3.9274 Y1.9513 I-0.0011 J0.0303
N4265 X3.874 Y2.0611 I-0.0558 J0.0408
N4270 G1 X3.8291
N4275 G3 X3.8289 Y1.9386 I0.0003 J-0.0613
N4280 G1 X3.859 Y1.9389
N4285 G3 X3.8825 Y1.9513 I-0.0011 J0.0303
N4290 X3.829 Y2.0611 I-0.0558 J0.0408
N4295 G1 X3.7816
N4300 G3 X3.7841 Y1.9389 I0.0025 J-0.0611
N4305 G1 X3.814
N4310 G3 X3.8386 Y1.9529 I-0.0011 J0.0303
N4315 X3.7816 Y2.0611 I-0.0594 J0.0378
N4320 G1 X3.7366
N4325 G3 X3.7391 Y1.9389 I0.0024 J-0.0611
N4330 G1 X3.7691
N4335 G3 X3.7936 Y1.9529 I-0.0011 J0.0303
N4340 X3.7366 Y2.0611 I-0.0594 J0.0378
N4345 G1 X3.6916
N4350 G3 X3.6941 Y1.9389 I0.0024 J-0.0611
N4355 G1 X3.7241
N4360 G3 X3.7422 Y1.9456 I-0.0011 J0.0303
N4365 X3.7486 Y1.9529 I-0.0191 J0.0235
N4370 X3.6916 Y2.0611 I-0.0594 J0.0378
N4375 G1 X3.6466
N4380 G3 X3.6491 Y1.9389 I0.0024 J-0.0611
N4385 G1 X3.6791
N4390 G3 X3.6972 Y1.9456 I-0.0011 J0.0303
N4395 X3.7036 Y1.9529 I-0.0191 J0.0235
N4400 X3.6466 Y2.0611 I-0.0594 J0.0378
N4405 G1 X3.6017
N4410 G3 X3.6042 Y1.9389 I0.0024 J-0.0611
N4415 G1 X3.6341
N4420 G3 X3.6587 Y1.9529 I-0.0011 J0.0303
N4425 X3.6017 Y2.0611 I-0.0594 J0.0378
N4430 G1 X3.5567
N4435 G3 X3.5592 Y1.9389 I0.0024 J-0.0611
N4440 G1 X3.5892
N4445 G3 X3.6137 Y1.9529 I-0.0011 J0.0303
N4450 X3.5567 Y2.0611 I-0.0594 J0.0378
N4455 G1 X3.5117
N4460 G3 X3.5142 Y1.9389 I0.0024 J-0.0611
N4465 G1 X3.5442
N4470 G3 X3.5623 Y1.9456 I-0.0011 J0.0303
N4475 X3.5687 Y1.9529 I-0.0191 J0.0235
N4480 X3.5117 Y2.0611 I-0.0594 J0.0378
N4485 G1 X3.4667
N4490 G3 X3.4692 Y1.9389 I0.0024 J-0.0611
N4495 G1 X3.4992
N4500 G3 X3.5173 Y1.9456 I-0.0011 J0.0303
N4505 X3.5237 Y1.9529 I-0.0191 J0.0235
N4510 X3.4667 Y2.0611 I-0.0594 J0.0378
N4515 G1 X3.4218
N4520 G3 X3.4243 Y1.9389 I0.0024 J-0.0611
N4525 G1 X3.4542
N4530 G3 X3.4723 Y1.9456 I-0.0011 J0.0303
N4535 X3.4787 Y1.9529 I-0.0191 J0.0235
N4540 X3.4218 Y2.0611 I-0.0594 J0.0378
N4545 G1 X3.3768
N4550 G3 X3.3793 Y1.9389 I0.0024 J-0.0611
N4555 G1 X3.4093
N4560 G3 X3.4338 Y1.9529 I-0.0011 J0.0303
N4565 X3.3768 Y2.0611 I-0.0594 J0.0378
N4570 G1 X3.3318
N4575 G3 X3.3343 Y1.9389 I0.0024 J-0.0611
N4580 G1 X3.3643
N4585 G3 X3.3888 Y1.9529 I-0.0011 J0.0303
N4590 X3.3318 Y2.0611 I-0.0594 J0.0378
N4595 X3.2935 Y2.0581 I-0.0122 J-0.0889
N4600 X3.2603 Y1.9995 I0.0187 J-0.0493
N4605 X3.3193 Y1.939 I0.0515 J-0.0088
N4610 G1 X3.3343 Y1.9389
N4615 G3 X3.3533 Y1.9433 I-0.0017 J0.05
N4620 G1 X3.3584 Y1.9456 Z0.6822
N4625 X3.3634 Y1.9479 Z0.6831
N4630 X3.3683 Y1.9502 Z0.6847
N4635 X3.373 Y1.9523 Z0.6868
N4640 X3.3775 Y1.9544 Z0.6896
N4645 X3.3817 Y1.9563 Z0.6928
N4650 X3.3855 Y1.958 Z0.6965
N4655 X3.3889 Y1.9595 Z0.7007
N4660 X3.3918 Y1.9609 Z0.7053
N4665 X3.3943 Y1.962 Z0.7102
N4670 X3.3962 Y1.9629 Z0.7154
N4675 X3.3976 Y1.9635 Z0.7208
N4680 X3.3985 Y1.9639 Z0.7263
N4685 X3.3988 Y1.9641 Z0.7319
N4690 G0 Z1.
N4695 G1 X2.9633 Y1.1772 F500.
N4700 G0 Z0.7819
N4705 G1 Z0.7319 F92.
N4710 X2.963 Y1.1773 Z0.7263
N4715 X2.9621 Y1.1776 Z0.7208
N4720 X2.9606 Y1.178 Z0.7154
N4725 X2.9585 Y1.1786 Z0.7102
N4730 X2.9559 Y1.1794 Z0.7053
N4735 X2.9528 Y1.1803 Z0.7007
N4740 X2.9492 Y1.1813 Z0.6965
N4745 X2.9452 Y1.1825 Z0.6928
N4750 X2.9408 Y1.1838 Z0.6896
N4755 X2.9361 Y1.1852 Z0.6868
N4760 X2.9312 Y1.1866 Z0.6847
N4765 X2.926 Y1.1882 Z0.6831
N4770 X2.9207 Y1.1897 Z0.6822
N4775 X2.9153 Y1.1913 Z0.6819
N4780 G3 X2.6447 Y1.24 I-0.3602 J-1.2246
N4785 G2 X2.4418 Y1.3386 I0.0023 J0.2629
N4790 G3 X2.3149 Y1.3255 I-0.0565 J-0.0736
N4795 X2.317 Y1.3078 I0.01 J-0.0079
N4800 X2.3254 Y1.305 I0.0079 J0.0098
N4805 G1 X2.4403 Y1.3092
N4810 G3 X2.4498 Y1.3296 I-0.0005 J0.0126
N4815 G1 X2.4188 Y1.3699
N4820 G3 X2.3384 Y1.3548 I-0.0347 J-0.037
N4825 G1 X2.3358 Y1.3506
N4830 X2.3337 Y1.3462
N4835 X2.3321 Y1.3416
N4840 X2.3309 Y1.3368
N4845 X2.3299 Y1.3313 Z0.6822
N4850 X2.3289 Y1.3258 Z0.6831
N4855 X2.3279 Y1.3205 Z0.6847
N4860 X2.327 Y1.3154 Z0.6868
N4865 X2.3261 Y1.3106 Z0.6896
N4870 X2.3253 Y1.3061 Z0.6928
N4875 X2.3245 Y1.302 Z0.6965
N4880 X2.3239 Y1.2983 Z0.7007
N4885 X2.3233 Y1.2951 Z0.7053
N4890 X2.3228 Y1.2925 Z0.7102
N4895 X2.3224 Y1.2904 Z0.7154
N4900 X2.3221 Y1.2888 Z0.7208
N4905 X2.322 Y1.2879 Z0.7263
N4910 X2.3219 Y1.2876 Z0.7319
N4915 G0 Z1.
N4920 G1 X1.662 Y1.0996 F500.
N4925 G0 Z0.7819
N4930 G1 Z0.7319 F92.
N4935 X1.6619 Y1.0998 Z0.7263
N4940 X1.6613 Y1.1006 Z0.7208
N4945 X1.6604 Y1.1018 Z0.7154
N4950 X1.6591 Y1.1035 Z0.7102
N4955 X1.6575 Y1.1057 Z0.7053
N4960 X1.6555 Y1.1083 Z0.7007
N4965 X1.6533 Y1.1113 Z0.6965
N4970 X1.6508 Y1.1147 Z0.6928
N4975 X1.6481 Y1.1183 Z0.6896
N4980 X1.6451 Y1.1223 Z0.6868
N4985 X1.6421 Y1.1264 Z0.6847
N4990 X1.6388 Y1.1307 Z0.6831
N4995 X1.6355 Y1.1352 Z0.6822
N5000 X1.6322 Y1.1397 Z0.6819
N5005 G3 X1.4453 Y1.3414 I-1.0243 J-0.7617
N5010 G2 X1.3408 Y1.5648 I0.1582 J0.2101
N5015 G1 X1.3409 Y2.0145
N5020 X1.3413 Y2.4941
N5025 X1.3416 Y2.5091
N5030 X1.3426 Y2.5241
N5035 G3 X1.3394 Y2.5434 I-0.05 J0.0016
N5040 G1 X1.3374 Y2.5486 Z0.6822
N5045 X1.3355 Y2.5538 Z0.6831
N5050 X1.3336 Y2.5588 Z0.6847
N5055 X1.3317 Y2.5637 Z0.6868
N5060 X1.33 Y2.5682 Z0.6896
N5065 X1.3284 Y2.5725 Z0.6928
N5070 X1.3269 Y2.5764 Z0.6965
N5075 X1.3256 Y2.5799 Z0.7007
N5080 X1.3244 Y2.583 Z0.7053
N5085 X1.3235 Y2.5855 Z0.7102
N5090 X1.3227 Y2.5875 Z0.7154
N5095 X1.3222 Y2.589 Z0.7208
N5100 X1.3218 Y2.5898 Z0.7263
N5105 X1.3217 Y2.5901 Z0.7319
N5110 G0 Z1.
N5115 G1 X1.8009 Y2.8205 F500.
N5120 G0 Z0.7819
N5125 G1 Z0.7319 F92.
N5130 X1.8012 Y2.8204 Z0.7263
N5135 X1.8021 Y2.8201 Z0.7208
N5140 X1.8036 Y2.8197 Z0.7154
N5145 X1.8056 Y2.8191 Z0.7102
N5150 X1.8082 Y2.8184 Z0.7053
N5155 X1.8114 Y2.8175 Z0.7007
N5160 X1.815 Y2.8165 Z0.6965
N5165 X1.819 Y2.8153 Z0.6928
N5170 X1.8234 Y2.814 Z0.6896
N5175 X1.8281 Y2.8127 Z0.6868
N5180 X1.8331 Y2.8113 Z0.6847
N5185 X1.8382 Y2.8098 Z0.6831
N5190 X1.8436 Y2.8083 Z0.6822
N5195 X1.8489 Y2.8067 Z0.6819
N5200 G3 X2.1199 Y2.76 I0.3513 J1.2272
N5205 G2 X2.3226 Y2.6659 I0.002 J-0.261
N5210 G3 X2.4499 Y2.6701 I0.0617 J0.059
N5215 X2.4604 Y2.6867 I-0.0652 J0.0537
N5220 X2.4393 Y2.7881 I-0.0757 J0.0371
N5225 X2.3176 Y2.6715 I-0.0548 J-0.0645
N5230 X2.3547 Y2.6249 I0.9047 J0.6821
N5235 X2.4278 Y2.641 I0.0289 J0.0428
N5240 X2.4343 Y2.6594 I-0.0428 J0.026
N5245 G1 X2.4352 Y2.6649 Z0.6822
N5250 X2.436 Y2.6704 Z0.6831
N5255 X2.4369 Y2.6757 Z0.6847
N5260 X2.4376 Y2.6808 Z0.6868
N5265 X2.4384 Y2.6857 Z0.6896
N5270 X2.4391 Y2.6902 Z0.6928
N5275 X2.4397 Y2.6943 Z0.6965
N5280 X2.4403 Y2.698 Z0.7007
N5285 X2.4408 Y2.7012 Z0.7053
N5290 X2.4412 Y2.7039 Z0.7102
N5295 X2.4415 Y2.706 Z0.7154
N5300 X2.4418 Y2.7076 Z0.7208
N5305 X2.4419 Y2.7085 Z0.7263
N5310 X2.442 Y2.7088 Z0.7319
N5315 G0 Z1.
N5320 G1 X1.2766 Y2.5649 F500.
N5325 G0 Z0.7819
N5330 G1 Z0.7319 F92.
N5335 X1.2769 Y2.5648 Z0.7263
N5340 X1.2778 Y2.5646 Z0.7208
N5345 X1.2793 Y2.5642 Z0.7154
N5350 X1.2814 Y2.5637 Z0.7102
N5355 X1.284 Y2.563 Z0.7053
N5360 X1.2871 Y2.5622 Z0.7007
N5365 X1.2908 Y2.5613 Z0.6965
N5370 X1.2948 Y2.5602 Z0.6928
N5375 X1.2992 Y2.5591 Z0.6896
N5380 X1.304 Y2.5579 Z0.6868
N5385 X1.309 Y2.5566 Z0.6847
N5390 X1.3142 Y2.5553 Z0.6831
N5395 X1.3196 Y2.5539 Z0.6822
N5400 X1.325 Y2.5525 Z0.6819
N5405 G3 X1.3444 Y2.5497 I0.0226 J0.0883
N5410 G1 X1.3454
N5415 X1.3459 Y2.5498
N5420 X1.3464 Y2.5502
N5425 X1.3466 Y2.5507
N5430 X1.3468 Y2.5532 Z0.6821
N5435 X1.347 Y2.5557 Z0.6825
N5440 X1.3471 Y2.5581 Z0.6833
N5445 X1.3468 Y2.561 Z0.6848
N5450 X1.3464 Y2.5636 Z0.6868
N5455 X1.3462 Y2.5659 Z0.6892
N5460 X1.3459 Y2.5677 Z0.692
N5465 X1.3458 Y2.5691 Z0.695
N5470 X1.3457 Y2.5699 Z0.6982
N5475 X1.3456 Y2.5702 Z0.7015
N5480 G0 Z1.
N5485 G1 X1.9355 Y1.1172 F500.
N5490 G0 Z0.8214
N5495 G1 Z0.7714 F92.
N5500 X1.9353 Y1.1173 Z0.7658
N5505 X1.9345 Y1.1178 Z0.7603
N5510 X1.9331 Y1.1186 Z0.7549
N5515 X1.9312 Y1.1196 Z0.7497
N5520 X1.9289 Y1.121 Z0.7448
N5525 X1.9261 Y1.1226 Z0.7403
N5530 X1.9228 Y1.1244 Z0.7361
N5535 X1.9192 Y1.1265 Z0.7323
N5540 X1.9152 Y1.1288 Z0.7291
N5545 X1.911 Y1.1312 Z0.7264
N5550 X1.9065 Y1.1338 Z0.7242
N5555 X1.9018 Y1.1365 Z0.7227
N5560 X1.897 Y1.1392 Z0.7217
N5565 X1.8922 Y1.142 Z0.7214
N5570 G3 X1.6402 Y1.2522 I-0.6344 J-1.1077
N5575 G2 X1.4424 Y1.5198 I0.0623 J0.2529
N5580 G1 X1.4421 Y1.5498
N5585 X1.4434 Y2.4941
N5590 X1.4437 Y2.5091
N5595 X1.4446 Y2.5241
N5600 G3 X1.4413 Y2.5434 I-0.05 J0.0014
N5605 G1 X1.4394 Y2.5486 Z0.7217
N5610 X1.4374 Y2.5538 Z0.7227
N5615 X1.4355 Y2.5588 Z0.7242
N5620 X1.4336 Y2.5636 Z0.7264
N5625 X1.4319 Y2.5682 Z0.7291
N5630 X1.4302 Y2.5725 Z0.7323
N5635 X1.4288 Y2.5764 Z0.7361
N5640 X1.4274 Y2.5799 Z0.7403
N5645 X1.4263 Y2.5829 Z0.7448
N5650 X1.4253 Y2.5854 Z0.7497
N5655 X1.4245 Y2.5875 Z0.7549
N5660 X1.424 Y2.5889 Z0.7603
N5665 X1.4236 Y2.5898 Z0.7658
N5670 X1.4235 Y2.5901 Z0.7714
N5675 G0 Z1.
N5680 G1 X1.7108 Y2.8199 F500.
N5685 G0 Z0.8214
N5690 G1 Z0.7714 F92.
N5695 X1.7111 Y2.8198 Z0.7658
N5700 X1.712 Y2.8195 Z0.7603
N5705 X1.7135 Y2.8191 Z0.7549
N5710 X1.7156 Y2.8185 Z0.7497
N5715 X1.7182 Y2.8178 Z0.7448
N5720 X1.7213 Y2.8169 Z0.7403
N5725 X1.7249 Y2.8159 Z0.7361
N5730 X1.7289 Y2.8147 Z0.7323
N5735 X1.7333 Y2.8135 Z0.7291
N5740 X1.738 Y2.8121 Z0.7264
N5745 X1.743 Y2.8107 Z0.7242
N5750 X1.7482 Y2.8092 Z0.7227
N5755 X1.7535 Y2.8077 Z0.7217
N5760 X1.7589 Y2.8062 Z0.7214
N5765 G3 X2.03 Y2.76 I0.3489 J1.2279
N5770 G2 X2.2706 Y2.6026 I0.0013 J-0.2606
N5775 G3 X2.3998 Y2.5371 I0.1131 J0.0629
N5780 X2.4751 Y2.6074 I-0.0222 J0.0993
N5785 G1 X2.4769 Y2.612
N5790 X2.4781 Y2.6167
N5795 X2.479 Y2.6215
N5800 X2.4793 Y2.6264
N5805 G3 X2.4296 Y2.6764 I-0.05 J0.
N5810 G1 X2.3145 Y2.6771
N5815 G3 X2.2678 Y2.6084 I-0.0003 J-0.05
N5820 G2 X2.29 Y2.5341 I-0.2909 J-0.1275
N5825 G3 X2.3889 Y2.4652 I0.1029 J0.0421
N5830 X2.4542 Y2.5294 I-0.0091 J0.0745
N5835 X2.454 Y2.549 I-0.1179 J0.0099
N5840 X2.4385 Y2.5986 I-0.1177 J-0.0097
N5845 X2.2868 Y2.5654 I-0.0705 J-0.0409
N5850 X2.2873 Y2.5459 I0.0811 J-0.0077
N5855 G2 X2.2925 Y2.4777 I-0.716 J-0.0888
N5860 G3 X2.3852 Y2.4001 I0.096 J0.0205
N5865 X2.4522 Y2.4719 I-0.0058 J0.0726
N5870 G1 X2.4521 Y2.4941
N5875 G3 X2.3984 Y2.5423 I-0.05 J-0.0017
N5880 G1 X2.3379 Y2.5377
N5885 G3 X2.2917 Y2.4896 I0.0037 J-0.0499
N5890 G1 Y2.4259
N5895 G3 X2.3942 Y2.3355 I0.0951 J0.0045
N5900 X2.4522 Y2.4043 I-0.0123 J0.0692
N5905 G1 X2.4521 Y2.4719
N5910 G3 X2.4316 Y2.5053 I-0.0397 J-0.0014
N5915 X2.2917 Y2.4259 I-0.0456 J-0.0826
N5920 G1 Y2.3592
N5925 G3 X2.3983 Y2.2713 I0.0936 J0.0049
N5930 X2.4523 Y2.3417 I-0.021 J0.072
N5935 G1 X2.4521 Y2.3892
N5940 G3 X2.4467 Y2.4079 I-0.0398 J-0.0014
N5945 X2.4415 Y2.4149 I-0.0345 J-0.0201
N5950 X2.2917 Y2.3592 I-0.0635 J-0.0587
N5955 G1 Y2.2948
N5960 G3 X2.398 Y2.2071 I0.0925 J0.0039
N5965 X2.4523 Y2.2777 I-0.0205 J0.0719
N5970 G1 X2.4521 Y2.3293
N5975 G3 X2.4388 Y2.3576 I-0.0398 J-0.0014
N5980 X2.2917 Y2.2947 I-0.0588 J-0.066
N5985 G1 Y2.2311
N5990 G3 X2.394 Y2.1408 I0.0947 J0.0042
N5995 X2.4522 Y2.2098 I-0.0123 J0.0694
N6000 G1 X2.4521 Y2.2777
N6005 G3 X2.4312 Y2.3113 I-0.0397 J-0.0014
N6010 X2.2917 Y2.2311 I-0.0448 J-0.0836
N6015 G1 X2.2916 Y2.1644
N6020 G3 X2.3982 Y2.0766 I0.0935 J0.0049
N6025 X2.4523 Y2.1471 I-0.0209 J0.072
N6030 G1 X2.4521 Y2.1943
N6035 G3 X2.4416 Y2.22 I-0.0399 J-0.0014
N6040 X2.2945 Y2.1837 I-0.0635 J-0.0587
N6045 X2.2916 Y2.1644 I0.0835 J-0.0224
N6050 G1 Y2.0999
N6055 G3 X2.398 Y2.0123 I0.0925 J0.004
N6060 X2.4523 Y2.083 I-0.0205 J0.072
N6065 G1 X2.4521 Y2.1344
N6070 G3 X2.4388 Y2.1627 I-0.0398 J-0.0014
N6075 X2.2945 Y2.1193 I-0.0589 J-0.066
N6080 X2.2916 Y2.0999 I0.0855 J-0.0225
N6085 G1 Y2.0362
N6090 G3 X2.394 Y1.946 I0.0947 J0.0043
N6095 X2.4522 Y2.015 I-0.0123 J0.0694
N6100 G1 X2.4521 Y2.083
N6105 G3 X2.4311 Y2.1167 I-0.0397 J-0.0014
N6110 X2.2916 Y2.0362 I-0.0446 J-0.0838
N6115 G1 Y1.9695
N6120 G3 X2.3895 Y1.8803 I0.0949 J0.0057
N6125 X2.4522 Y1.9514 I-0.0098 J0.0719
N6130 G1 X2.4521 Y1.9995
N6135 G3 X2.4467 Y2.0182 I-0.0399 J-0.0014
N6140 X2.4416 Y2.0252 I-0.0345 J-0.0201
N6145 X2.2916 Y1.9695 I-0.0635 J-0.0587
N6150 X2.2924 Y1.892 I0.551 J-0.033
N6155 X2.3103 Y1.844 I0.1272 J0.02
N6160 X2.3709 Y1.8091 I0.0904 J0.0868
N6165 X2.4523 Y1.8796 I0.0094 J0.0713
N6170 G1 X2.4521 Y1.9514
N6175 G3 X2.4313 Y1.9849 I-0.0397 J-0.0014
N6180 X2.2916 Y1.905 I-0.0451 J-0.0833
N6185 G1 X2.2915 Y1.5198
N6190 X2.2914 Y1.5048
N6195 X2.2912 Y1.4898
N6200 G3 X2.2955 Y1.4708 I0.05 J0.0011
N6205 G1 X2.2977 Y1.4657 Z0.7217
N6210 X2.2999 Y1.4606 Z0.7227
N6215 X2.3021 Y1.4557 Z0.7242
N6220 X2.3042 Y1.4509 Z0.7264
N6225 X2.3062 Y1.4464 Z0.7291
N6230 X2.308 Y1.4423 Z0.7323
N6235 X2.3097 Y1.4384 Z0.7361
N6240 X2.3112 Y1.435 Z0.7403
N6245 X2.3125 Y1.432 Z0.7448
N6250 X2.3136 Y1.4296 Z0.7497
N6255 X2.3145 Y1.4276 Z0.7549
N6260 X2.3151 Y1.4262 Z0.7603
N6265 X2.3155 Y1.4253 Z0.7658
N6270 X2.3156 Y1.425 Z0.7714
N6275 G0 Z1.
N6280 G1 X4.3213 Y2.6632 F500.
N6285 G0 Z0.8214
N6290 G1 Z0.7714 F92.
N6295 X4.3212 Y2.6628 Z0.7658
N6300 X4.321 Y2.6619 Z0.7603
N6305 X4.3205 Y2.6605 Z0.7549
N6310 X4.3199 Y2.6584 Z0.7497
N6315 X4.3192 Y2.6558 Z0.7448
N6320 X4.3183 Y2.6527 Z0.7403
N6325 X4.3173 Y2.6491 Z0.7361
N6330 X4.3161 Y2.6451 Z0.7323
N6335 X4.3148 Y2.6407 Z0.7291
N6340 X4.3135 Y2.636 Z0.7264
N6345 X4.312 Y2.631 Z0.7242
N6350 X4.3105 Y2.6258 Z0.7227
N6355 X4.309 Y2.6205 Z0.7217
N6360 X4.3074 Y2.6151 Z0.7214
N6365 G3 X4.26 Y2.3442 I1.2263 J-0.3544
N6370 G2 X3.979 Y2.0822 I-0.2619 J-0.0008
N6375 G1 X3.3193
N6380 G3 X3.2743 Y2.0716 I-0.0101 J-0.0573
N6385 X3.2548 Y2.0295 I0.0319 J-0.0404
N6390 G1 Y1.9695
N6395 G3 X3.3043 Y1.9178 I0.0507 J-0.0011
N6400 G1 X3.3343
N6405 X3.979
N6410 X3.994 Y1.9177
N6415 X4.0089 Y1.9175
N6420 X4.0239 Y1.9165
N6425 G3 X4.0432 Y1.9197 I0.0016 J0.05
N6430 G1 X4.0484 Y1.9217 Z0.7217
N6435 X4.0536 Y1.9237 Z0.7227
N6440 X4.0586 Y1.9256 Z0.7242
N6445 X4.0635 Y1.9274 Z0.7264
N6450 X4.0681 Y1.9291 Z0.7291
N6455 X4.0723 Y1.9308 Z0.7323
N6460 X4.0763 Y1.9322 Z0.7361
N6465 X4.0798 Y1.9335 Z0.7403
N6470 X4.0828 Y1.9347 Z0.7448
N6475 X4.0853 Y1.9357 Z0.7497
N6480 X4.0873 Y1.9364 Z0.7549
N6485 X4.0888 Y1.937 Z0.7603
N6490 X4.0897 Y1.9373 Z0.7658
N6495 X4.09 Y1.9374 Z0.7714
N6500 G0 Z1.
N6505 G1 X3.0218 Y1.1703 F500.
N6510 G0 Z0.8214
N6515 G1 Z0.7714 F92.
N6520 X3.0215 Y1.1704 Z0.7658
N6525 X3.0206 Y1.1707 Z0.7603
N6530 X3.0191 Y1.1712 Z0.7549
N6535 X3.0171 Y1.1718 Z0.7497
N6540 X3.0145 Y1.1727 Z0.7448
N6545 X3.0114 Y1.1736 Z0.7403
N6550 X3.0078 Y1.1748 Z0.7361
N6555 X3.0039 Y1.176 Z0.7323
N6560 X2.9995 Y1.1774 Z0.7291
N6565 X2.9948 Y1.1789 Z0.7264
N6570 X2.9899 Y1.1805 Z0.7242
N6575 X2.9847 Y1.1821 Z0.7227
N6580 X2.9795 Y1.1838 Z0.7217
N6585 X2.9741 Y1.1855 Z0.7214
N6590 G3 X2.7046 Y1.2401 I-0.3869 J-1.2164
N6595 G2 X2.4521 Y1.5198 I0.0085 J0.2615
N6600 G1 Y1.8646
N6605 G3 X2.4477 Y1.8836 I-0.05 J-0.0017
N6610 G1 X2.4453 Y1.8887 Z0.7217
N6615 X2.443 Y1.8937 Z0.7227
N6620 X2.4408 Y1.8986 Z0.7242
N6625 X2.4387 Y1.9033 Z0.7264
N6630 X2.4366 Y1.9078 Z0.7291
N6635 X2.4347 Y1.9119 Z0.7323
N6640 X2.433 Y1.9157 Z0.7361
N6645 X2.4314 Y1.9191 Z0.7403
N6650 X2.4301 Y1.9221 Z0.7448
N6655 X2.429 Y1.9246 Z0.7497
N6660 X2.4281 Y1.9265 Z0.7549
N6665 X2.4274 Y1.9279 Z0.7603
N6670 X2.427 Y1.9288 Z0.7658
N6675 X2.4269 Y1.9291 Z0.7714
N6680 G0 Z1.
N6685 G1 X4.0649 Y1.9826 F500.
N6690 G0 Z0.8214
N6695 G1 Z0.7714 F92.
N6700 X4.0648 Y1.9823 Z0.7658
N6705 X4.0646 Y1.9813 Z0.7603
N6710 X4.0642 Y1.9798 Z0.7549
N6715 X4.0637 Y1.9778 Z0.7497
N6720 X4.063 Y1.9751 Z0.7448
N6725 X4.0622 Y1.972 Z0.7403
N6730 X4.0613 Y1.9684 Z0.7361
N6735 X4.0602 Y1.9643 Z0.7323
N6740 X4.0591 Y1.9599 Z0.7291
N6745 X4.0579 Y1.9551 Z0.7264
N6750 X4.0566 Y1.9501 Z0.7242
N6755 X4.0553 Y1.9449 Z0.7227
N6760 X4.0539 Y1.9395 Z0.7217
N6765 X4.0525 Y1.9341 Z0.7214
N6770 G3 X4.0497 Y1.9147 I0.0883 J-0.0226
N6775 G1 Y1.9137
N6780 X4.0498 Y1.9132
N6785 X4.0502 Y1.9128
N6790 X4.0507 Y1.9126
N6795 G3 X4.0702 Y1.9137 I0.007 J0.0495
N6800 G1 X4.0756 Y1.9151 Z0.7217
N6805 X4.0809 Y1.9165 Z0.7227
N6810 X4.0861 Y1.9179 Z0.7242
N6815 X4.0912 Y1.9192 Z0.7264
N6820 X4.0959 Y1.9204 Z0.7291
N6825 X4.1003 Y1.9215 Z0.7323
N6830 X4.1044 Y1.9226 Z0.7361
N6835 X4.108 Y1.9235 Z0.7403
N6840 X4.1111 Y1.9243 Z0.7448
N6845 X4.1138 Y1.925 Z0.7497
N6850 X4.1159 Y1.9255 Z0.7549
N6855 X4.1174 Y1.9259 Z0.7603
N6860 X4.1183 Y1.9262 Z0.7658
N6865 X4.1186 Z0.7714
N6870 G0 Z1.
N6875 G1 X1.3786 Y2.5649 F500.
N6880 G0 Z0.8214
N6885 G1 Z0.7714 F92.
N6890 X1.3789 Y2.5648 Z0.7658
N6895 X1.3798 Y2.5646 Z0.7603
N6900 X1.3813 Y2.5642 Z0.7549
N6905 X1.3834 Y2.5637 Z0.7497
N6910 X1.386 Y2.563 Z0.7448
N6915 X1.3892 Y2.5622 Z0.7403
N6920 X1.3928 Y2.5613 Z0.7361
N6925 X1.3968 Y2.5602 Z0.7323
N6930 X1.4013 Y2.5591 Z0.7291
N6935 X1.406 Y2.5579 Z0.7264
N6940 X1.411 Y2.5566 Z0.7242
N6945 X1.4163 Y2.5553 Z0.7227
N6950 X1.4216 Y2.5539 Z0.7217
N6955 X1.427 Y2.5525 Z0.7214
N6960 G3 X1.4465 Y2.5497 I0.0226 J0.0883
N6965 G1 X1.4475
N6970 X1.448 Y2.5498
N6975 X1.4484 Y2.5502
N6980 X1.4486 Y2.5507
N6985 X1.4488 Y2.5532 Z0.7216
N6990 X1.449 Y2.5556 Z0.7221
N6995 X1.4492 Y2.558 Z0.7228
N7000 X1.4488 Y2.5609 Z0.7243
N7005 X1.4485 Y2.5636 Z0.7263
N7010 X1.4482 Y2.5659 Z0.7287
N7015 X1.4479 Y2.5677 Z0.7315
N7020 X1.4478 Y2.5691 Z0.7345
N7025 X1.4477 Y2.5699 Z0.7377
N7030 X1.4476 Y2.5702 Z0.7411
N7035 G0 Z1.
N7040 G1 X4.1013 Y3.0771 F500.
N7045 G0 Z0.8606
N7050 G1 Z0.8106 F92.
N7055 X4.1012 Y3.0768 Z0.805
N7060 X4.1009 Y3.0759 Z0.7995
N7065 X4.1006 Y3.0744 Z0.7941
N7070 X4.1 Y3.0723 Z0.7889
N7075 X4.0994 Y3.0697 Z0.784
N7080 X4.0985 Y3.0666 Z0.7795
N7085 X4.0976 Y3.063 Z0.7753
N7090 X4.0966 Y3.0589 Z0.7715
N7095 X4.0954 Y3.0545 Z0.7683
N7100 X4.0942 Y3.0497 Z0.7656
N7105 X4.0929 Y3.0447 Z0.7634
N7110 X4.0916 Y3.0395 Z0.7619
N7115 X4.0902 Y3.0341 Z0.7609
N7120 X4.0888 Y3.0287 Z0.7606
N7125 G3 X4.0497 Y2.7565 I1.2366 J-0.3167
N7130 X4.0456 Y2.57 I13.9715 J-0.4041
N7135 G2 X3.9884 Y2.4697 I-0.1666 J0.0285
N7140 X3.7799 Y2.3651 I-0.3151 J0.3679
N7145 X3.496 Y2.3198 I-0.3576 J1.3287
N7150 G3 X3.3052 Y2.2791 I0.0555 J-0.7273
N7155 X3.116 Y2.0046 I0.1133 J-0.2805
N7160 X3.2328 Y1.8224 I0.2123 J0.0076
N7165 X3.411 Y1.7556 I0.2756 J0.4638
N7170 X3.6882 Y1.7176 I0.3374 J1.4318
N7175 X3.7796 Y1.7105 I0.3519 J3.9617
N7180 G2 X3.8391 Y1.6847 I-0.0249 J-0.1387
N7185 G1 X3.8416 Y1.6826
N7190 X3.8429 Y1.6816
N7195 G3 X3.9063 Y1.7588 I0.0314 J0.0389
N7200 G1 X3.3407 Y2.2313
N7205 G2 X3.323 Y2.2644 I0.0321 J0.0384
N7210 G3 X3.3189 Y2.2836 I-0.0906 J-0.0096
N7215 X3.2431 Y2.314 I-0.0689 J-0.0623
N7220 X3.1025 Y2.2651 I-0.0066 J-0.2075
N7225 X2.9752 Y1.9974 I0.1918 J-0.2553
N7230 X3.0713 Y1.7623 I0.3485 J0.0052
N7235 X3.2549 Y1.6273 I0.3981 J0.349
N7240 G1 X3.2593 Y1.6254
N7245 X3.264 Y1.6239
N7250 X3.2687 Y1.6229
N7255 X3.2736 Y1.6223
N7260 G3 X3.3228 Y1.6861 I0.0012 J0.05
N7265 G1 X3.1532 Y2.2747
N7270 X3.1495 Y2.2876
N7275 G3 X3.1474 Y2.2935 I-0.048 J-0.0138
N7280 X3.0761 Y2.3145 I-0.0574 J-0.063
N7285 X2.9447 Y2.257 I0.0106 J-0.2029
N7290 X2.8319 Y2.0492 I0.2206 J-0.2542
N7295 X2.8818 Y1.7502 I0.4444 J-0.0795
N7300 X2.9096 Y1.6981 I0.4893 J0.227
N7305 G2 X2.9138 Y1.6295 I-0.1094 J-0.0413
N7310 G3 X3.0124 Y1.6182 I0.0486 J-0.0119
N7315 G1 X3.0046 Y2.2757
N7320 Y2.2761
N7325 G3 X3.0004 Y2.2952 I-0.05 J-0.001
N7330 X2.9481 Y2.3159 I-0.0532 J-0.0577
N7335 G2 X2.8835 Y2.3346 I0.0052 J0.139
N7340 G3 X2.8656 Y2.3424 I-0.0284 J-0.0411
N7345 G1 X2.8601 Y2.3435 Z0.7609
N7350 X2.8547 Y2.3447 Z0.7619
N7355 X2.8495 Y2.3458 Z0.7634
N7360 X2.8444 Y2.3469 Z0.7656
N7365 X2.8396 Y2.348 Z0.7683
N7370 X2.8351 Y2.3489 Z0.7715
N7375 X2.831 Y2.3498 Z0.7753
N7380 X2.8274 Y2.3506 Z0.7795
N7385 X2.8242 Y2.3513 Z0.784
N7390 X2.8216 Y2.3519 Z0.7889
N7395 X2.8195 Y2.3523 Z0.7941
N7400 X2.818 Y2.3526 Z0.7995
N7405 X2.817 Y2.3528 Z0.805
N7410 X2.8167 Y2.3529 Z0.8106
N7415 G0 Z1.
N7420 G1 X1.1273 Y2.6013 F500.
N7425 G0 Z0.8606
N7430 G1 Z0.8106 F92.
N7435 X1.1276 Y2.6012 Z0.805
N7440 X1.1285 Y2.6009 Z0.7995
N7445 X1.13 Y2.6006 Z0.7941
N7450 X1.1321 Y2.6 Z0.7889
N7455 X1.1347 Y2.5994 Z0.784
N7460 X1.1379 Y2.5985 Z0.7795
N7465 X1.1415 Y2.5976 Z0.7753
N7470 X1.1455 Y2.5966 Z0.7715
N7475 X1.15 Y2.5954 Z0.7683
N7480 X1.1547 Y2.5942 Z0.7656
N7485 X1.1597 Y2.5929 Z0.7634
N7490 X1.1649 Y2.5916 Z0.7619
N7495 X1.1703 Y2.5902 Z0.7609
N7500 X1.1757 Y2.5888 Z0.7606
N7505 G3 X1.4479 Y2.5497 I0.3167 J1.2366
N7510 X1.8046 Y2.5437 I0.4451 J15.8818
N7515 G2 X1.9055 Y2.4869 I-0.0188 J-0.1515
N7520 X2.0093 Y2.2781 I-0.3653 J-0.3118
N7525 X2.0541 Y1.9941 I-1.3201 J-0.3536
N7530 X2.0666 Y1.7196 I-3.2369 J-0.2853
N7535 X2.0132 Y1.6301 I-0.1657 J0.0383
N7540 X1.907 Y1.5644 I-0.188 J0.185
N7545 X1.7825 Y1.6196 I-0.0206 J0.1215
N7550 X1.7022 Y1.8672 I0.635 J0.3426
N7555 X1.6743 Y2.0524 I7.9252 J1.2911
N7560 G1 X1.6738 Y2.0558 Z0.7609
N7565 X1.6733 Y2.059 Z0.7618
N7570 X1.6729 Y2.062 Z0.7632
N7575 X1.6725 Y2.0648 Z0.7651
N7580 X1.6716 Y2.0671 Z0.7676
N7585 X1.671 Y2.069 Z0.7704
N7590 X1.6704 Y2.0703 Z0.7735
N7595 X1.6701 Y2.0712 Z0.7768
N7600 X1.67 Y2.0715 Z0.7803
N7605 G0 Z1.
N7610 G1 X4.4764 Y2.9321 F500.
N7615 G0 Z0.1126
N7620 G1 Z0.0626 F92.
N7625 X4.4762 Y2.9319 Z0.057
N7630 X4.4754 Y2.9314 Z0.0515
N7635 X4.4741 Y2.9306 Z0.0461
N7640 X4.4723 Y2.9295 Z0.0409
N7645 X4.47 Y2.928 Z0.036
N7650 X4.4672 Y2.9262 Z0.0314
N7655 X4.4641 Y2.9242 Z0.0272
N7660 X4.4606 Y2.922 Z0.0235
N7665 X4.4567 Y2.9195 Z0.0203
N7670 X4.4526 Y2.9169 Z0.0175
N7675 X4.4482 Y2.9141 Z0.0154
N7680 X4.4437 Y2.9112 Z0.0139
N7685 X4.439 Y2.9082 Z0.0129
N7690 X4.4343 Y2.9052 Z0.0126
N7695 G3 X4.2197 Y2.7332 I0.6867 J-1.0761
N7700 X4.2259 Y2.6292 I0.0772 J-0.0476
N7705 G2 X4.26 Y2.4941 I-0.2361 J-0.1314
N7710 G1 Y0.2607
N7715 G2 X4.1739 Y0.0562 I-0.2651 J-0.0087
N7720 G1 X3.9437 Y-0.174
N7725 G2 X3.7391 Y-0.2599 I-0.1954 J0.1788
N7730 G1 X3.7091 Y-0.26
N7735 X0.2759
N7740 G2 X0.0563 Y-0.174 I-0.021 J0.2698
N7745 G1 X-0.1739 Y0.0562
N7750 G2 X-0.26 Y0.2607 I0.179 J0.1958
N7755 G1 Y2.2393
N7760 G2 X-0.1739 Y2.4438 I0.2651 J0.0087
N7765 G1 X0.0563 Y2.674
N7770 G2 X0.2609 Y2.7599 I0.1954 J-0.1788
N7775 G1 X0.2909 Y2.76
N7780 X3.979
N7785 X3.994
N7790 X4.0022 Y2.7599
N7795 X4.0055 Y2.7604 Z0.0129
N7800 X4.0088 Y2.7608 Z0.0138
N7805 X4.0118 Y2.7613 Z0.0152
N7810 X4.0146 Y2.7617 Z0.0171
N7815 X4.0169 Y2.7625 Z0.0195
N7820 X4.0187 Y2.7632 Z0.0224
N7825 X4.0201 Y2.7637 Z0.0255
N7830 X4.021 Y2.764 Z0.0288
N7835 X4.0212 Y2.7641 Z0.0322
N7840 G0 Z1.
N7845 G1 X4.4764 Y2.9321 F500.
N7850 G0 Z0.1004
N7855 G1 Z0.0504 F92.
N7860 X4.4762 Y2.9319 Z0.0448
N7865 X4.4754 Y2.9314 Z0.0393
N7870 X4.4741 Y2.9306 Z0.0339
N7875 X4.4723 Y2.9295 Z0.0287
N7880 X4.47 Y2.928 Z0.0238
N7885 X4.4672 Y2.9262 Z0.0192
N7890 X4.4641 Y2.9242 Z0.015
N7895 X4.4606 Y2.922 Z0.0113
N7900 X4.4567 Y2.9195 Z0.0081
N7905 X4.4526 Y2.9169 Z0.0053
N7910 X4.4482 Y2.9141 Z0.0032
N7915 X4.4437 Y2.9112 Z0.0016
N7920 X4.439 Y2.9082 Z0.0007
N7925 X4.4343 Y2.9052 Z0.0004
N7930 G3 X4.2197 Y2.7332 I0.6867 J-1.0761
N7935 X4.2259 Y2.6292 I0.0772 J-0.0476
N7940 G2 X4.26 Y2.4941 I-0.2361 J-0.1314
N7945 G1 Y0.2607
N7950 G2 X4.1739 Y0.0562 I-0.2651 J-0.0087
N7955 G1 X3.9437 Y-0.174
N7960 G2 X3.7391 Y-0.2599 I-0.1954 J0.1788
N7965 G1 X3.7091 Y-0.26
N7970 X0.2759
N7975 G2 X0.0563 Y-0.174 I-0.021 J0.2698
N7980 G1 X-0.1739 Y0.0562
N7985 G2 X-0.26 Y0.2607 I0.179 J0.1958
N7990 G1 Y2.2393
N7995 G2 X-0.1739 Y2.4438 I0.2651 J0.0087
N8000 G1 X0.0563 Y2.674
N8005 G2 X0.2609 Y2.7599 I0.1954 J-0.1788
N8010 G1 X0.2909 Y2.76
N8015 X3.979
N8020 X3.994
N8025 X4.0022 Y2.7599
N8030 G3 X4.0212 Y2.7641 I-0.0011 J0.05
N8035 G1 X4.0264 Y2.7663 Z0.0007
N8040 X4.0314 Y2.7686 Z0.0016
N8045 X4.0364 Y2.7707 Z0.0032
N8050 X4.0411 Y2.7728 Z0.0053
N8055 X4.0456 Y2.7748 Z0.0081
N8060 X4.0498 Y2.7766 Z0.0113
N8065 X4.0536 Y2.7783 Z0.015
N8070 X4.057 Y2.7798 Z0.0192
N8075 X4.06 Y2.7811 Z0.0238
N8080 X4.0625 Y2.7822 Z0.0287
N8085 X4.0644 Y2.7831 Z0.0339
N8090 X4.0659 Y2.7837 Z0.0393
N8095 X4.0667 Y2.7841 Z0.0448
N8100 X4.067 Y2.7842 Z0.0504
N8105 G0 Z1.4

(Bore1)
N8115 G1 X0.5 Y1.925 F500.
N8120 G0 Z1.4
N8125 Z0.58
N8130 G1 Z0.55 F92.
N8135 G18 G3 X0.45 Z0.5 I-0.05 K0.
N8140 G1 X0.425
N8145 G17 G3 X0.375 Y1.875 I0. J-0.05
N8150 X0.376 Y1.8968 Z0.4014 I0.25 J0.
N8155 X0.3788 Y1.9184 Z0.3028 I0.249 J-0.0218
N8160 X0.3835 Y1.9397 Z0.2042 I0.2462 J-0.0434
N8165 X0.3901 Y1.9605 Z0.1056 I0.2415 J-0.0647
N8170 X0.8712 Y1.8316 Z0.0528 I0.2349 J-0.0855
N8175 X0.375 Y1.875 Z0. I-0.2462 J0.0434
N8180 X0.875 I0.25 J0.
N8185 X0.375 I-0.25 J0.
N8190 X0.425 Y1.825 I0.05 J0.
N8195 G1 X0.45
N8200 G18 G2 X0.5 Z0.05 I0. K0.05
N8205 G0 Z1.4

(2D Contour2)
N8215 G1 X4.04 Y1.1 F500.
N8220 G0 Z1.4
N8225 Z1.
N8230 G1 Z0.8394 F92.
N8235 Z0.55 F30.
N8240 G19 G3 Y1.15 Z0.5 J0.05 K0.
N8245 G1 Y1.2 F92.
N8250 G17 G3 X3.99 Y1.25 I-0.05 J0.
N8255 G1 X1.75
N8260 G2 X1.25 Y1.75 I0. J0.5
N8265 G1 Y2.49
N8270 G3 X1.2 Y2.54 I-0.05 J0.
N8275 G1 X1.15
N8280 G18 G3 X1.1 Z0.55 I0. K0.05
N8285 G0 Z1.4
N8290 G1 X-0.4 Y1.2 F500.
N8295 G0 Z1.
N8300 G1 Z0.8394 F92.
N8305 Z0.05 F30.
N8310 G2 X-0.35 Z0. I0.05 K0.
N8315 G1 X-0.3 F92.
N8320 G17 G3 X-0.25 Y1.25 I0. J0.05
N8325 G1 Y2.25
N8330 G2 X-0.1768 Y2.4268 I0.25 J0.
N8335 G1 X0.0732 Y2.6768
N8340 G2 X0.25 Y2.75 I0.1768 J-0.1768
N8345 G1 X4.
N8350 G2 X4.25 Y2.5 I0. J-0.25
N8355 G1 Y0.25
N8360 G2 X4.1768 Y0.0732 I-0.25 J0.
N8365 G1 X3.9268 Y-0.1768
N8370 G2 X3.75 Y-0.25 I-0.1768 J0.1768
N8375 G1 X0.25
N8380 G2 X0.0732 Y-0.1768 I0. J0.25
N8385 G1 X-0.1768 Y0.0732
N8390 G2 X-0.25 Y0.25 I0.1768 J0.1768
N8395 G1 Y1.25
N8400 G3 X-0.3 Y1.3 I-0.05 J0.
N8405 G1 X-0.35
N8410 G18 G3 X-0.4 Z0.05 I0. K0.05
N8415 G0 Z1.4
N8420 M5
N8425 G53 G0 Z0.

(Parallel1)
N8435 M9
N8440 M1
N8445 T3 M6
N8450 S9000 M3
N8455 G54
N8465 G17
N8470 G0 X2.8375 Y1.5626
N8475 G43 Z1.4 H3
N8480 T1
N8485 G0 Z0.83
N8490 G1 Z0.7624 F20.
N8495 G18 G3 X2.8256 Z0.75 I-0.0125 K0.
N8500 G2 X2.6615 Z0.7019 I0.0024 K-0.3125 F40.
N8505 G3 X2.5003 Z0.6208 I-0.4074 K0.6088
N8510 X2.3733 Z0.6011 I-0.12 K0.3545
N8515 X2.2534 Z0.6281 I0.0184 K0.361
N8520 G1 X2.226 Z0.6395
N8525 X2.186 Z0.658
N8530 G2 X2.0686 Z0.712 I-0.7525 K-1.482
N8535 X1.7898 Z0.7429 I-0.194 K-0.4759
N8540 X1.5679 Z0.6729 I0.1168 K-0.7564
N8545 G3 X1.55 Z0.6843 I-0.0055 K0.0114 F20.
N8550 G0 Z1.
N8555 G1 X1.4907 Y1.625 F500.
N8560 G0 Z0.7232
N8565 G1 Z0.6527 F20.
N8570 G2 X1.5094 Z0.6419 I0.0125 K0.
N8575 G3 X1.8023 Z0.7452 I0.4099 K-0.6956 F40.
N8580 X2.0724 Z0.7104 I0.0711 K-0.5134
N8585 X2.1818 Z0.66 I-0.6002 K-1.448
N8590 G1 X2.2217 Z0.6414
N8595 G2 X2.338 Z0.6044 I0.1939 K0.4076
N8600 X2.5001 Z0.6212 I0.0466 K0.3403
N8605 X2.6299 Z0.6824 I-0.1997 K0.5916
N8610 G3 X2.6935 Z0.7196 I0.3539 K-0.5313
N8615 X2.8256 Z0.75 I0.1351 K-0.2855
N8620 G2 X2.8281 Z0.7506 I-0.0003 K0.0062
N8625 G3 X2.8308 Z0.7512 I0.0028 K-0.0056
N8630 G17 G3 X2.8496 Y1.6438 I0. J0.0187
N8635 G1 Y1.6687
N8640 G3 X2.8308 Y1.6875 I-0.0187 J0.
N8645 G18 G2 X2.8281 Z0.7506 I0. K-0.0063
N8650 G3 X2.8256 Z0.75 I-0.0028 K0.0056
N8655 G2 X2.6602 Z0.7012 I0.0023 K-0.3127
N8660 G3 X2.4989 Z0.6203 I-0.4006 K0.598
N8665 X2.3658 Z0.6014 I-0.1176 K0.3499
N8670 X2.2481 Z0.6302 I0.029 K0.3731
N8675 X2.1148 Z0.6923 I1.0072 K2.336
N8680 G2 X1.9791 Z0.7395 I-0.2854 K-0.603
N8685 X1.7689 Z0.7394 I-0.105 K-0.5208
N8690 X1.4807 Z0.6242 I0.149 K-0.7909
N8695 G1 X1.4791 Z0.6236
N8700 X1.4773 Z0.6235
N8705 X1.4683
N8710 X1.4667 Y1.6876
N8715 X1.465 Y1.6878 Z0.6234
N8720 X1.4634 Y1.6881
N8725 X1.4619 Y1.6886
N8730 X1.4604 Y1.6892 Z0.6233
N8735 X1.4589 Y1.69 Z0.6232
N8740 X1.4575 Y1.6909 Z0.6231
N8745 X1.4562 Y1.6919
N8750 X1.455 Y1.693 Z0.623
N8755 X1.4539 Y1.6942 Z0.6228
N8760 X1.4529 Y1.6955 Z0.6227
N8765 X1.4521 Y1.6968 Z0.6226
N8770 X1.4513 Y1.6983 Z0.6225
N8775 X1.4507 Y1.6998 Z0.6223
N8780 X1.4502 Y1.7013 Z0.6222
N8785 X1.4498 Y1.7029 Z0.622
N8790 X1.4496 Y1.7045 Z0.6219
N8795 X1.4495 Y1.7062 Z0.6217
N8800 Y1.7313 Z0.6194
N8805 X1.4496 Y1.7329 Z0.6193
N8810 X1.4498 Y1.7345 Z0.6191
N8815 X1.4502 Y1.7361 Z0.619
N8820 X1.4507 Y1.7377 Z0.6188
N8825 X1.4513 Y1.7392 Z0.6187
N8830 X1.4521 Y1.7406 Z0.6185
N8835 X1.4529 Y1.742 Z0.6184
N8840 X1.4539 Y1.7433 Z0.6183
N8845 X1.455 Y1.7445 Z0.6182
N8850 X1.4562 Y1.7456 Z0.6181
N8855 X1.4575 Y1.7466 Z0.618
N8860 X1.4589 Y1.7475 Z0.6179
N8865 X1.4604 Y1.7482 Z0.6178
N8870 X1.4619 Y1.7488
N8875 X1.4634 Y1.7493 Z0.6177
N8880 X1.465 Y1.7497
N8885 X1.4667 Y1.7499
N8890 X1.4683 Y1.75
N8895 G2 X1.4717 Z0.6187 I0. K0.0063
N8900 G3 X1.8023 Z0.7453 I0.4519 K-0.6848
N8905 X1.9953 Z0.7358 I0.0707 K-0.5295
N8910 X2.1366 Z0.6817 I-0.1932 K-0.7161
N8915 G1 X2.183 Z0.6595
N8920 X2.2229 Z0.6408
N8925 G2 X2.3377 Z0.6044 I0.1928 K0.408
N8930 X2.5001 Z0.6212 I0.0469 K0.3404
N8935 X2.6234 Z0.6786 I-0.1949 K0.5798
N8940 G1 X2.6615 Z0.7019
N8945 G3 X2.8256 Z0.75 I0.1665 K-0.2646
N8950 G2 X2.8281 Z0.7506 I-0.0003 K0.0062
N8955 G3 X2.8308 Z0.7512 I0.0028 K-0.0056
N8960 G17 G3 X2.8496 Y1.7687 I0. J0.0187
N8965 G1 Y1.7937
N8970 G3 X2.8308 Y1.8124 I-0.0187 J0.
N8975 G18 G2 X2.8281 Z0.7506 I0. K-0.0063
N8980 G3 X2.8256 Z0.75 I-0.0028 K0.0056
N8985 G2 X2.6615 Z0.7019 I0.0024 K-0.3125
N8990 G3 X2.5003 Z0.6208 I-0.407 K0.6079
N8995 X2.3727 Z0.6011 I-0.12 K0.3547
N9000 X2.2685 Z0.6225 I0.0171 K0.3479
N9005 G1 X2.2486 Z0.63
N9010 G3 X2.1166 Z0.6913 I1.1943 K2.7423
N9015 G2 X1.9626 Z0.7428 I-0.2775 K-0.5735
N9020 X1.7363 Z0.7325 I-0.0882 K-0.5553
N9025 X1.4656 Z0.6144 I0.1843 K-0.7916
N9030 G1 X1.4639 Z0.6138
N9035 X1.4621 Z0.6136
N9040 X1.462
N9045 G17 G2 X1.4433 Y1.8312 I0. J0.0187
N9050 G1 Y1.8561
N9055 G2 X1.462 Y1.8749 I0.0187 J0.
N9060 G18 G2 X1.4655 Z0.6146 I0. K0.0063
N9065 G3 X1.7838 Z0.7425 I0.4609 K-0.687
N9070 X1.9677 Z0.7418 I0.09 K-0.5471
N9075 X2.1315 Z0.684 I-0.1341 K-0.6404
N9080 G1 X2.1719 Z0.6648
N9085 X2.2172 Z0.6434
N9090 G2 X2.3247 Z0.6068 I0.2095 K0.4387
N9095 X2.4986 Z0.6207 I0.0609 K0.3305
N9100 X2.6286 Z0.6816 I-0.1929 K0.581
N9105 G1 X2.6602 Z0.7012
N9110 G3 X2.8256 Z0.7499 I0.1675 K-0.2631
N9115 G2 X2.8281 Z0.7506 I-0.0003 K0.0063
N9120 G3 X2.8308 Z0.7512 I0.0028 K-0.0056
N9125 G17 G3 X2.8496 Y1.8936 I0. J0.0187
N9130 G1 Y1.9186
N9135 G3 X2.8308 Y1.9374 I-0.0187 J0.
N9140 G18 G2 X2.8281 Z0.7506 I0. K-0.0063
N9145 G3 X2.8256 Z0.75 I-0.0028 K0.0056
N9150 G2 X2.6603 Z0.7012 I0.0023 K-0.3126
N9155 G3 X2.4988 Z0.6203 I-0.4014 K0.5996
N9160 X2.3652 Z0.6014 I-0.1175 K0.3502
N9165 X2.2436 Z0.6321 I0.0313 K0.3804
N9170 G1 X2.2171 Z0.6435
N9175 G2 X2.0971 Z0.7002 I-3.4095 K-7.057
N9180 X1.9377 Z0.7465 I-0.2393 K-0.5257
N9185 X1.7175 Z0.728 I-0.0612 K-0.5895
N9190 X1.4656 Z0.6145 I0.2069 K-0.7953
N9195 G3 X1.4621 Z0.6136 I-0.0035 K0.0054
N9200 G17 G2 X1.4433 Y1.9561 I0. J0.0187
N9205 G1 Y1.9811
N9210 G2 X1.4621 Y1.9998 I0.0187 J0.
N9215 G18 G2 X1.4655 Z0.6146 I0. K0.0062
N9220 G3 X1.7714 Z0.7404 I0.4631 K-0.6913
N9225 X1.96 Z0.7433 I0.1029 K-0.5584
N9230 X2.1176 Z0.6907 I-0.1174 K-0.6135
N9235 G1 X2.1382 Z0.6811
N9240 X2.1846 Z0.6587
N9245 X2.2238 Z0.6404
N9250 G2 X2.3311 Z0.6055 I0.1952 K0.4178
N9255 X2.5002 Z0.6212 I0.0541 K0.3351
N9260 X2.6299 Z0.6824 I-0.1977 K0.5874
N9265 G3 X2.6935 Z0.7196 I0.3543 K-0.5318
N9270 X2.8256 Z0.75 I0.1351 K-0.2855
N9275 G2 X2.8281 Z0.7506 I-0.0003 K0.0062
N9280 G3 X2.8308 Z0.7512 I0.0028 K-0.0056
N9285 G1 X2.8309
N9290 G17 G3 X2.8496 Y2.0186 I0. J0.0187
N9295 G1 Y2.0435
N9300 G3 X2.8309 Y2.0623 I-0.0187 J0.
N9305 G18 G2 X2.8281 Z0.7506 I0. K-0.0062
N9310 G3 X2.8256 Z0.75 I-0.0028 K0.0056
N9315 G2 X2.6606 Z0.7014 I0.0022 K-0.3121
N9320 G3 X2.4991 Z0.6204 I-0.4036 K0.6031
N9325 X2.3721 Z0.6011 I-0.1189 K0.3551
N9330 X2.2638 Z0.6242 I0.019 K0.3551
N9335 G1 X2.244 Z0.6318
N9340 G3 X2.1114 Z0.6939 I1.4433 K3.2572
N9345 G2 X1.9903 Z0.7369 I-0.2898 K-0.6233
N9350 X1.7688 Z0.7393 I-0.1163 K-0.5099
N9355 X1.4656 Z0.6143 I0.1491 K-0.7919
N9360 G1 X1.4639 Z0.6137
N9365 X1.4621 Z0.6136
N9370 G17 G2 X1.4433 Y2.081 I0. J0.0187
N9375 G1 Y2.106
N9380 G2 X1.4621 Y2.1248 I0.0187 J0.
N9385 G18 G2 X1.4655 Z0.6146 I0. K0.0062
N9390 G3 X1.7705 Z0.7402 I0.4632 K-0.6917
N9395 X1.9384 Z0.7464 I0.105 K-0.5705
N9400 X2.1115 Z0.6934 I-0.0809 K-0.5732
N9405 G1 X2.1322 Z0.684
N9410 G2 X2.264 Z0.6238 I0.7792 K1.5319
N9415 X2.387 Z0.6009 I0.1258 K0.3335
N9420 X2.5479 Z0.6398 I-0.0128 K0.4055
N9425 X2.6602 Z0.7012 I-0.3024 K0.6854
N9430 G3 X2.8256 Z0.7499 I0.1678 K-0.2644
N9435 G1 Z0.75
N9440 G2 X2.8281 Z0.7506 I-0.0003 K0.0062
N9445 G3 X2.8308 Z0.7512 I0.0027 K-0.0056
N9450 G17 G3 X2.8496 Y2.1435 I0. J0.0187
N9455 G1 Y2.1685
N9460 G3 X2.8308 Y2.1872 I-0.0187 J0.
N9465 G18 G2 X2.8281 Z0.7506 I0. K-0.0062
N9470 G3 X2.8256 Z0.75 I-0.0028 K0.0056
N9475 G2 X2.655 Z0.6978 I0.0027 K-0.3138
N9480 G3 X2.5003 Z0.6208 I-0.3946 K0.5988
N9485 X2.3718 Z0.6011 I-0.12 K0.3541
N9490 X2.2623 Z0.6248 I0.0195 K0.3563
N9495 G1 X2.2425 Z0.6325
N9500 G3 X2.1169 Z0.6914 I1.3309 K3.001
N9505 G2 X1.9628 Z0.7428 I-0.2822 K-0.589
N9510 X1.7394 Z0.7333 I-0.0885 K-0.5535
N9515 X1.4656 Z0.6144 I0.1831 K-0.7963
N9520 G1 X1.4639 Z0.6138
N9525 X1.4621 Z0.6136
N9530 G17 G2 X1.4433 Y2.206 I0. J0.0187
N9535 G1 Y2.2309
N9540 G2 X1.4621 Y2.2497 I0.0187 J0.
N9545 G18 G2 X1.4655 Z0.6146 I0. K0.0062
N9550 G3 X1.7957 Z0.7444 I0.4595 K-0.6842
N9555 X1.9665 Z0.7421 I0.0781 K-0.5438
N9560 X2.1295 Z0.6849 I-0.1298 K-0.631
N9565 G1 X2.1699 Z0.6658
N9570 X2.2166 Z0.6437
N9575 G2 X2.3292 Z0.6058 I0.2079 K0.4321
N9580 X2.5001 Z0.6212 I0.056 K0.3349
N9585 X2.6549 Z0.6981 I-0.2149 K0.627
N9590 G3 X2.8256 Z0.75 I0.1747 K-0.2674
N9595 G2 X2.8281 Z0.7506 I-0.0003 K0.0062
N9600 G3 X2.8308 Z0.7512 I0.0028 K-0.0056
N9605 G1 X2.8309
N9610 G17 G3 X2.8496 Y2.2684 I0. J0.0187
N9615 G1 Y2.2934
N9620 G3 X2.8309 Y2.3121 I-0.0187 J0.
N9625 G18 G2 X2.8281 Z0.7506 I0. K-0.0063
N9630 G3 X2.8256 Z0.75 I-0.0028 K0.0056
N9635 G2 X2.6558 Z0.6983 I0.0027 K-0.3141
N9640 G3 X2.5018 Z0.6213 I-0.3995 K0.6061
N9645 X2.3754 Z0.601 I-0.1225 K0.3586
N9650 X2.2422 Z0.6327 I0.0177 K0.3694
N9655 G1 X2.2164 Z0.6438
N9660 G2 X2.0951 Z0.7011 I-2.9802 K-6.1552
N9665 X1.9505 Z0.7447 I-0.2408 K-0.5365
N9670 X1.7466 Z0.735 I-0.0756 K-0.5561
N9675 X1.4656 Z0.6144 I0.1762 K-0.7986
N9680 G3 X1.4621 Z0.6136 I-0.0035 K0.0054
N9685 G17 G2 X1.4434 Y2.3309 I0. J0.0187
N9690 G1 Y2.3559
N9695 G2 X1.4621 Y2.3746 I0.0187 J0.
N9700 G18 G2 X1.4655 Z0.6146 I0. K0.0062
N9705 G3 X1.7949 Z0.7443 I0.46 K-0.6854
N9710 X1.9532 I0.0794 K-0.5532
N9715 X2.0975 Z0.6998 I-0.0976 K-0.5721
N9720 G1 X2.1183 Z0.6905
N9725 X2.1525 Z0.6743
N9730 X2.212 Z0.6458
N9735 G2 X2.3222 Z0.6072 I0.223 K0.4604
N9740 X2.4864 Z0.6169 I0.0631 K0.3262
N9745 X2.624 Z0.679 I-0.1733 K0.5667
N9750 G3 X2.6934 Z0.7197 I0.4901 K-0.7576
N9755 X2.8256 Z0.75 I0.1357 K-0.2885
N9760 G2 X2.8281 Z0.7506 I-0.0003 K0.0062
N9765 G3 X2.8308 Z0.7512 I0.0028 K-0.0056
N9770 G17 G3 X2.8496 Y2.3934 I0. J0.0187
N9775 G1 Y2.4183
N9780 G3 X2.8308 Y2.4371 I-0.0187 J0.
N9785 G18 G2 X2.8281 Z0.7506 I0. K-0.0063
N9790 G3 X2.8256 Z0.75 I-0.0028 K0.0056
N9795 G2 X2.6551 Z0.6979 I0.0027 K-0.3139
N9800 G3 X2.5082 Z0.6235 I-0.4056 K0.6191
N9805 X2.379 Z0.6009 I-0.1299 K0.3622
N9810 X2.2392 Z0.6341 I0.0139 K0.3698
N9815 G1 X2.2119 Z0.6458
N9820 G2 X2.0766 Z0.7089 I-1.3139 K-2.6415
N9825 X1.923 Z0.748 I-0.2098 K-0.5024
N9830 X1.6884 Z0.7198 I-0.0445 K-0.6192
N9835 X1.4656 Z0.6145 I0.2362 K-0.7882
N9840 G3 X1.4621 Z0.6136 I-0.0035 K0.0054
N9845 G17 G2 X1.4433 Y2.4558 I0. J0.0187
N9850 G1 Y2.4808
N9855 G2 X1.4621 Y2.4995 I0.0187 J0.
N9860 G18 G2 X1.4655 Z0.6146 I0. K0.0063
N9865 G1 X1.4663 Z0.6152
N9870 G3 X1.7957 Z0.7444 I0.4592 K-0.6859
N9875 X1.9383 Z0.7464 I0.0796 K-0.5801
N9880 X2.1174 Z0.6906 I-0.0836 K-0.5827
N9885 G1 X2.1517 Z0.6746
N9890 X2.212 Z0.6458
N9895 G2 X2.3222 Z0.6072 I0.2243 K0.4635
N9900 X2.4857 Z0.6167 I0.0631 K0.3269
N9905 X2.6299 Z0.6825 I-0.1766 K0.5775
N9910 G3 X2.7004 Z0.7229 I0.3429 K-0.5166
N9915 X2.8256 Z0.75 I0.1287 K-0.2923
N9920 G2 X2.8375 Z0.7624 I-0.0005 K0.0124 F20.
N9925 G0 Z1.4

(Parallel2)
N9935 G1 X3.9826 Y2.3934 F500.
N9940 G0 Z1.4
N9945 Z0.83
N9950 G1 Z0.7622 F20.
N9955 G19 G2 Y2.3821 Z0.7498 J-0.0125 K0.
N9960 G1 Y2.3684 Z0.7484 F40.
N9965 Y2.3518 Z0.7443
N9970 Y2.3453 Z0.7417
N9975 Y2.3356 Z0.7374
N9980 Y2.3263 Z0.7318
N9985 Y2.3178 Z0.7259
N9990 Y2.3074 Z0.7166
N9995 Y2.3014 Z0.71
N10000 Y2.294 Z0.7003
N10005 Y2.2884 Z0.6908
N10010 Y2.2851 Z0.6846
N10015 Y2.2754 Z0.665
N10020 Y2.2641 Z0.6457
N10025 Y2.2558 Z0.6331
N10030 Y2.2424 Z0.6154
N10035 Y2.2276 Z0.5985
N10040 Y2.217 Z0.5877
N10045 Y2.2004 Z0.5728
N10050 Y2.1825 Z0.559
N10055 Y2.17 Z0.5504
N10060 Y2.1508 Z0.5389
N10065 Y2.1306 Z0.5287
N10070 Y2.1167 Z0.5226
N10075 Y2.0955 Z0.515
N10080 Y2.0809 Z0.5108
N10085 Y2.0588 Z0.5056
N10090 Y2.0364 Z0.5022
N10095 Y2.0213 Z0.5008
N10100 Y1.9982 Z0.5001
N10105 Y1.9768 Z0.501
N10110 Y1.9624 Z0.5024
N10115 Y1.9407 Z0.5057
N10120 Y1.9191 Z0.5107
N10125 Y1.898 Z0.5173
N10130 Y1.881 Z0.5237
N10135 Y1.8642 Z0.5311
N10140 Y1.8447 Z0.5415
N10145 Y1.8291 Z0.551
N10150 Y1.814 Z0.5614
N10155 Y1.7967 Z0.5753
N10160 Y1.7832 Z0.5875
N10165 Y1.7677 Z0.6037
N10170 Y1.7556 Z0.6179
N10175 Y1.7446 Z0.6324
N10180 Y1.7323 Z0.6515
N10185 Y1.7231 Z0.6679
N10190 Y1.7125 Z0.6892
N10195 Y1.7061 Z0.7002
N10200 Y1.6972 Z0.7117
N10205 Y1.6909 Z0.7182
N10210 Y1.6812 Z0.7267
N10215 Y1.6688 Z0.735
N10220 Y1.6606 Z0.7392
N10225 Y1.6485 Z0.7442
N10230 Y1.6339 Z0.748
N10235 Y1.6246 Z0.7492
N10240 Y1.6179 Z0.7498
N10245 G2 Y1.6156 Z0.7504 J0.0005 K0.0062
N10250 G3 Y1.6129 Z0.751 J-0.0028 K-0.0056
N10255 G17 G2 X3.9626 I-0.01 J0.
N10260 G19 G2 Y1.6156 Z0.7504 J0. K-0.0063
N10265 G3 Y1.6179 Z0.7498 J0.0028 K0.0056
N10270 G1 Y1.6246 Z0.7492
N10275 Y1.6339 Z0.748
N10280 Y1.6485 Z0.7442
N10285 Y1.6606 Z0.7392
N10290 Y1.6688 Z0.735
N10295 Y1.6812 Z0.7267
N10300 Y1.6909 Z0.7182
N10305 Y1.6972 Z0.7117
N10310 Y1.7061 Z0.7002
N10315 Y1.7125 Z0.6892
N10320 Y1.7231 Z0.6679
N10325 Y1.7323 Z0.6515
N10330 Y1.7446 Z0.6324
N10335 Y1.7556 Z0.6179
N10340 Y1.7677 Z0.6037
N10345 Y1.7832 Z0.5875
N10350 Y1.7967 Z0.5753
N10355 Y1.814 Z0.5614
N10360 Y1.8291 Z0.551
N10365 Y1.8447 Z0.5415
N10370 Y1.8642 Z0.5311
N10375 Y1.881 Z0.5237
N10380 Y1.898 Z0.5173
N10385 Y1.9191 Z0.5107
N10390 Y1.9407 Z0.5057
N10395 Y1.9624 Z0.5024
N10400 Y1.9768 Z0.501
N10405 Y1.9976 Z0.5001
N10410 Y2.0207 Z0.5007
N10415 Y2.0358 Z0.5022
N10420 Y2.0582 Z0.5055
N10425 Y2.0803 Z0.5106
N10430 Y2.0949 Z0.5149
N10435 Y2.1162 Z0.5225
N10440 Y2.1369 Z0.5317
N10445 Y2.1504 Z0.5387
N10450 Y2.1696 Z0.5501
N10455 Y2.1821 Z0.5587
N10460 Y2.1999 Z0.5724
N10465 Y2.2165 Z0.5872
N10470 Y2.2271 Z0.5981
N10475 Y2.242 Z0.6149
N10480 Y2.2553 Z0.6324
N10485 Y2.2637 Z0.6451
N10490 Y2.275 Z0.6643
N10495 Y2.2817 Z0.6776
N10500 Y2.288 Z0.69
N10505 Y2.2934 Z0.6994
N10510 Y2.3008 Z0.7092
N10515 Y2.307 Z0.7162
N10520 Y2.3176 Z0.7258
N10525 Y2.3261 Z0.7317
N10530 Y2.3354 Z0.7373
N10535 Y2.3452 Z0.7417
N10540 Y2.3516 Z0.7442
N10545 Y2.3683 Z0.7484
N10550 Y2.3821 Z0.7498
N10555 G3 Y2.3842 Z0.7504 J-0.0006 K0.0062
N10560 G2 Y2.387 Z0.751 J0.0028 K-0.0056
N10565 G17 G3 X3.9426 I-0.01 J0.
N10570 G19 G3 Y2.3842 Z0.7504 J0. K-0.0063
N10575 G2 Y2.3821 Z0.7498 J-0.0028 K0.0056
N10580 G1 Y2.3681 Z0.7483
N10585 Y2.3515 Z0.7441
N10590 Y2.3387 Z0.7389
N10595 Y2.3303 Z0.7344
N10600 Y2.3181 Z0.7262
N10605 Y2.3077 Z0.7169
N10610 Y2.3017 Z0.7103
N10615 Y2.2942 Z0.7006
N10620 Y2.2886 Z0.6911
N10625 Y2.2853 Z0.685
N10630 Y2.2756 Z0.6653
N10635 Y2.2643 Z0.646
N10640 Y2.2559 Z0.6333
N10645 Y2.2426 Z0.6156
N10650 Y2.2278 Z0.5987
N10655 Y2.2171 Z0.5879
N10660 Y2.2005 Z0.5729
N10665 Y2.1827 Z0.5591
N10670 Y2.1702 Z0.5505
N10675 Y2.151 Z0.539
N10680 Y2.1307 Z0.5288
N10685 Y2.1169 Z0.5227
N10690 Y2.0957 Z0.5151
N10695 Y2.0811 Z0.5108
N10700 Y2.059 Z0.5057
N10705 Y2.0365 Z0.5023
N10710 Y2.0214 Z0.5008
N10715 Y1.9984 Z0.5001
N10720 Y1.9768 Z0.501
N10725 Y1.9624 Z0.5024
N10730 Y1.9407 Z0.5057
N10735 Y1.9191 Z0.5107
N10740 Y1.898 Z0.5173
N10745 Y1.881 Z0.5237
N10750 Y1.8642 Z0.5311
N10755 Y1.8447 Z0.5415
N10760 Y1.8291 Z0.551
N10765 Y1.814 Z0.5614
N10770 Y1.7967 Z0.5753
N10775 Y1.7832 Z0.5875
N10780 Y1.7677 Z0.6037
N10785 Y1.7556 Z0.6179
N10790 Y1.7446 Z0.6324
N10795 Y1.7323 Z0.6515
N10800 Y1.7231 Z0.6679
N10805 Y1.7125 Z0.6892
N10810 Y1.7061 Z0.7002
N10815 Y1.6972 Z0.7117
N10820 Y1.6909 Z0.7182
N10825 Y1.6812 Z0.7267
N10830 Y1.6688 Z0.735
N10835 Y1.6606 Z0.7392
N10840 Y1.6485 Z0.7442
N10845 Y1.6339 Z0.748
N10850 Y1.6246 Z0.7492
N10855 Y1.6179 Z0.7498
N10860 G2 Y1.6156 Z0.7504 J0.0005 K0.0062
N10865 G3 Y1.6129 Z0.751 J-0.0028 K-0.0056
N10870 G17 G2 X3.9226 I-0.01 J0.
N10875 G19 G2 Y1.6156 Z0.7504 J0. K-0.0063
N10880 G3 Y1.6179 Z0.7498 J0.0028 K0.0056
N10885 G1 Y1.6246 Z0.7492
N10890 Y1.6339 Z0.748
N10895 Y1.6485 Z0.7442
N10900 Y1.6606 Z0.7392
N10905 Y1.6688 Z0.735
N10910 Y1.6812 Z0.7267
N10915 Y1.6909 Z0.7182
N10920 Y1.6972 Z0.7117
N10925 Y1.7061 Z0.7002
N10930 Y1.7125 Z0.6892
N10935 Y1.7231 Z0.6679
N10940 Y1.7323 Z0.6515
N10945 Y1.7446 Z0.6324
N10950 Y1.7556 Z0.6179
N10955 Y1.7677 Z0.6037
N10960 Y1.7832 Z0.5875
N10965 Y1.7967 Z0.5753
N10970 Y1.814 Z0.5614
N10975 Y1.8291 Z0.551
N10980 Y1.8447 Z0.5415
N10985 Y1.8642 Z0.5311
N10990 Y1.881 Z0.5237
N10995 Y1.898 Z0.5173
N11000 Y1.9191 Z0.5107
N11005 Y1.9407 Z0.5057
N11010 Y1.9624 Z0.5024
N11015 Y1.9768 Z0.501
N11020 Y1.9983 Z0.5001
N11025 Y2.0214 Z0.5008
N11030 Y2.0365 Z0.5023
N11035 Y2.0589 Z0.5057
N11040 Y2.081 Z0.5108
N11045 Y2.0956 Z0.5151
N11050 Y2.1168 Z0.5227
N11055 Y2.1307 Z0.5288
N11060 Y2.1509 Z0.5389
N11065 Y2.1701 Z0.5504
N11070 Y2.1826 Z0.5591
N11075 Y2.2005 Z0.5729
N11080 Y2.2171 Z0.5878
N11085 Y2.2277 Z0.5986
N11090 Y2.2425 Z0.6155
N11095 Y2.2559 Z0.6332
N11100 Y2.2642 Z0.6459
N11105 Y2.2755 Z0.6652
N11110 Y2.2852 Z0.6848
N11115 Y2.2885 Z0.691
N11120 Y2.2941 Z0.7005
N11125 Y2.3016 Z0.7102
N11130 Y2.3076 Z0.7168
N11135 Y2.3179 Z0.7261
N11140 Y2.3301 Z0.7343
N11145 Y2.3386 Z0.7388
N11150 Y2.3513 Z0.7441
N11155 Y2.3679 Z0.7483
N11160 Y2.3822 Z0.7498
N11165 G3 Y2.3843 Z0.7504 J-0.0006 K0.0062
N11170 G2 Y2.387 Z0.751 J0.0027 K-0.0057
N11175 G17 G3 X3.9026 I-0.01 J0.
N11180 G19 G3 Y2.3844 Z0.7504 J0. K-0.0063
N11185 G2 Y2.3822 Z0.7498 J-0.0028 K0.0056
N11190 G1 Y2.3711 Z0.7488
N11195 Y2.361 Z0.7467
N11200 Y2.3511 Z0.744
N11205 Y2.3353 Z0.7372
N11210 Y2.3263 Z0.7318
N11215 Y2.3178 Z0.726
N11220 Y2.3074 Z0.7167
N11225 Y2.3014 Z0.71
N11230 Y2.294 Z0.7003
N11235 Y2.2884 Z0.6909
N11240 Y2.2851 Z0.6846
N11245 Y2.2755 Z0.665
N11250 Y2.2641 Z0.6457
N11255 Y2.2558 Z0.6331
N11260 Y2.2424 Z0.6154
N11265 Y2.2276 Z0.5985
N11270 Y2.217 Z0.5877
N11275 Y2.2004 Z0.5728
N11280 Y2.1825 Z0.559
N11285 Y2.17 Z0.5504
N11290 Y2.1508 Z0.5389
N11295 Y2.1306 Z0.5288
N11300 Y2.1167 Z0.5226
N11305 Y2.0955 Z0.5151
N11310 Y2.0809 Z0.5108
N11315 Y2.0589 Z0.5056
N11320 Y2.0364 Z0.5022
N11325 Y2.0213 Z0.5008
N11330 Y1.9982 Z0.5001
N11335 Y1.9768 Z0.501
N11340 Y1.9624 Z0.5024
N11345 Y1.9407 Z0.5057
N11350 Y1.9191 Z0.5107
N11355 Y1.898 Z0.5173
N11360 Y1.881 Z0.5237
N11365 Y1.8642 Z0.5311
N11370 Y1.8447 Z0.5415
N11375 Y1.8291 Z0.551
N11380 Y1.814 Z0.5614
N11385 Y1.7967 Z0.5753
N11390 Y1.7832 Z0.5875
N11395 Y1.7677 Z0.6037
N11400 Y1.7556 Z0.6179
N11405 Y1.7446 Z0.6324
N11410 Y1.7323 Z0.6515
N11415 Y1.7231 Z0.6679
N11420 Y1.7125 Z0.6892
N11425 Y1.7061 Z0.7002
N11430 Y1.6972 Z0.7117
N11435 Y1.6909 Z0.7182
N11440 Y1.6812 Z0.7267
N11445 Y1.6688 Z0.735
N11450 Y1.6606 Z0.7392
N11455 Y1.6485 Z0.7442
N11460 Y1.6339 Z0.748
N11465 Y1.6246 Z0.7492
N11470 Y1.6179 Z0.7498
N11475 G2 Y1.6156 Z0.7504 J0.0005 K0.0062
N11480 G3 Y1.6129 Z0.751 J-0.0028 K-0.0056
N11485 G17 G2 X3.8826 I-0.01 J0.
N11490 G19 G2 Y1.6156 Z0.7504 J0. K-0.0063
N11495 G3 Y1.6179 Z0.7498 J0.0028 K0.0056
N11500 G1 Y1.6246 Z0.7492
N11505 Y1.6339 Z0.748
N11510 Y1.6485 Z0.7442
N11515 Y1.6606 Z0.7392
N11520 Y1.6688 Z0.735
N11525 Y1.6812 Z0.7267
N11530 Y1.6909 Z0.7182
N11535 Y1.6972 Z0.7117
N11540 Y1.7061 Z0.7002
N11545 Y1.7125 Z0.6892
N11550 Y1.7231 Z0.6679
N11555 Y1.7323 Z0.6515
N11560 Y1.7446 Z0.6324
N11565 Y1.7556 Z0.6179
N11570 Y1.7677 Z0.6037
N11575 Y1.7832 Z0.5875
N11580 Y1.7967 Z0.5753
N11585 Y1.814 Z0.5614
N11590 Y1.8291 Z0.551
N11595 Y1.8447 Z0.5415
N11600 Y1.8642 Z0.5311
N11605 Y1.881 Z0.5237
N11610 Y1.898 Z0.5173
N11615 Y1.9191 Z0.5107
N11620 Y1.9407 Z0.5057
N11625 Y1.9624 Z0.5024
N11630 Y1.9768 Z0.501
N11635 Y1.9982 Z0.5001
N11640 Y2.0212 Z0.5008
N11645 Y2.0363 Z0.5022
N11650 Y2.0588 Z0.5056
N11655 Y2.0809 Z0.5107
N11660 Y2.0954 Z0.515
N11665 Y2.1166 Z0.5226
N11670 Y2.1305 Z0.5287
N11675 Y2.1507 Z0.5389
N11680 Y2.17 Z0.5503
N11685 Y2.1825 Z0.559
N11690 Y2.2003 Z0.5727
N11695 Y2.2169 Z0.5876
N11700 Y2.2275 Z0.5985
N11705 Y2.2424 Z0.6153
N11710 Y2.2557 Z0.633
N11715 Y2.2641 Z0.6456
N11720 Y2.2754 Z0.6649
N11725 Y2.2851 Z0.6845
N11730 Y2.2884 Z0.6907
N11735 Y2.2939 Z0.7002
N11740 Y2.3013 Z0.7099
N11745 Y2.3073 Z0.7166
N11750 Y2.3176 Z0.7258
N11755 Y2.3229 Z0.7296
N11760 Y2.3351 Z0.7372
N11765 Y2.3509 Z0.744
N11770 Y2.3608 Z0.7467
N11775 Y2.3709 Z0.7488
N11780 Y2.3821 Z0.7498
N11785 Y2.3822
N11790 G3 Y2.3844 Z0.7504 J-0.0006 K0.0062
N11795 G2 Y2.3871 Z0.751 J0.0028 K-0.0056
N11800 G17 G3 X3.8626 I-0.01 J0.
N11805 G19 G3 Y2.3843 Z0.7504 J0. K-0.0063
N11810 G2 Y2.3821 Z0.7498 J-0.0028 K0.0056
N11815 G1 Y2.3707 Z0.7488
N11820 Y2.3607 Z0.7466
N11825 Y2.3507 Z0.7439
N11830 Y2.335 Z0.7371
N11835 Y2.3224 Z0.7293
N11840 Y2.3148 Z0.7234
N11845 Y2.3069 Z0.7161
N11850 Y2.3007 Z0.7091
N11855 Y2.2933 Z0.6993
N11860 Y2.2879 Z0.6899
N11865 Y2.2816 Z0.6775
N11870 Y2.2749 Z0.6642
N11875 Y2.2636 Z0.645
N11880 Y2.2553 Z0.6323
N11885 Y2.2419 Z0.6148
N11890 Y2.2271 Z0.598
N11895 Y2.2165 Z0.5872
N11900 Y2.1999 Z0.5724
N11905 Y2.182 Z0.5587
N11910 Y2.1695 Z0.55
N11915 Y2.1503 Z0.5386
N11920 Y2.1368 Z0.5317
N11925 Y2.1162 Z0.5224
N11930 Y2.0948 Z0.5148
N11935 Y2.0802 Z0.5106
N11940 Y2.0582 Z0.5055
N11945 Y2.0357 Z0.5022
N11950 Y2.0206 Z0.5007
N11955 Y1.9976 Z0.5001
N11960 Y1.9768 Z0.501
N11965 Y1.9624 Z0.5024
N11970 Y1.9407 Z0.5057
N11975 Y1.9191 Z0.5107
N11980 Y1.898 Z0.5173
N11985 Y1.881 Z0.5237
N11990 Y1.8642 Z0.5311
N11995 Y1.8447 Z0.5415
N12000 Y1.8291 Z0.551
N12005 Y1.814 Z0.5614
N12010 Y1.7967 Z0.5753
N12015 Y1.7832 Z0.5875
N12020 Y1.7677 Z0.6037
N12025 Y1.7556 Z0.6179
N12030 Y1.7446 Z0.6324
N12035 Y1.7323 Z0.6515
N12040 Y1.7231 Z0.6679
N12045 Y1.7125 Z0.6892
N12050 Y1.7061 Z0.7002
N12055 Y1.6972 Z0.7117
N12060 Y1.6909 Z0.7182
N12065 Y1.6812 Z0.7267
N12070 Y1.6688 Z0.735
N12075 Y1.6606 Z0.7392
N12080 Y1.6485 Z0.7442
N12085 Y1.6339 Z0.748
N12090 Y1.6246 Z0.7492
N12095 Y1.6179 Z0.7498
N12100 G2 Y1.6156 Z0.7504 J0.0005 K0.0062
N12105 G3 Y1.6129 Z0.751 J-0.0028 K-0.0056
N12110 G17 G2 X3.8426 I-0.01 J0.
N12115 G19 G2 Y1.6156 Z0.7504 J0. K-0.0063
N12120 G3 Y1.6179 Z0.7498 J0.0028 K0.0056
N12125 G1 Y1.6246 Z0.7492
N12130 Y1.6339 Z0.748
N12135 Y1.6485 Z0.7442
N12140 Y1.6606 Z0.7392
N12145 Y1.6688 Z0.735
N12150 Y1.6812 Z0.7267
N12155 Y1.6909 Z0.7182
N12160 Y1.6972 Z0.7117
N12165 Y1.7061 Z0.7002
N12170 Y1.7125 Z0.6892
N12175 Y1.7231 Z0.6679
N12180 Y1.7323 Z0.6515
N12185 Y1.7446 Z0.6324
N12190 Y1.7556 Z0.6179
N12195 Y1.7677 Z0.6037
N12200 Y1.7832 Z0.5875
N12205 Y1.7967 Z0.5753
N12210 Y1.814 Z0.5614
N12215 Y1.8291 Z0.551
N12220 Y1.8447 Z0.5415
N12225 Y1.8642 Z0.5311
N12230 Y1.881 Z0.5237
N12235 Y1.898 Z0.5173
N12240 Y1.9191 Z0.5107
N12245 Y1.9407 Z0.5057
N12250 Y1.9624 Z0.5024
N12255 Y1.9768 Z0.501
N12260 Y2. Z0.5
N12265 Y2.0186 Z0.5006
N12270 Y2.0412 Z0.5028
N12275 Y2.0562 Z0.5052
N12280 Y2.0784 Z0.51
N12285 Y2.1001 Z0.5166
N12290 Y2.1143 Z0.5218
N12295 Y2.135 Z0.5307
N12300 Y2.1484 Z0.5377
N12305 Y2.1679 Z0.5491
N12310 Y2.1864 Z0.5617
N12315 Y2.1983 Z0.5711
N12320 Y2.2152 Z0.586
N12325 Y2.2308 Z0.6019
N12330 Y2.2407 Z0.6134
N12335 Y2.2544 Z0.6311
N12340 Y2.2665 Z0.6495
N12345 Y2.2741 Z0.6626
N12350 Y2.2856 Z0.6856
N12355 Y2.2907 Z0.695
N12360 Y2.2947 Z0.7013
N12365 Y2.3011 Z0.7096
N12370 Y2.3061 Z0.7154
N12375 Y2.314 Z0.7227
N12380 Y2.3195 Z0.7272
N12385 Y2.3341 Z0.7366
N12390 Y2.345 Z0.7416
N12395 Y2.3535 Z0.7448
N12400 Y2.3638 Z0.7474
N12405 Y2.3705 Z0.7487
N12410 Y2.3822 Z0.7498
N12415 G3 Y2.3844 Z0.7504 J-0.0006 K0.0062
N12420 G2 Y2.3871 Z0.751 J0.0028 K-0.0056
N12425 G17 G3 X3.8226 I-0.01 J0.
N12430 G19 G3 Y2.3843 Z0.7504 J0. K-0.0063
N12435 G2 Y2.3821 Z0.7498 J-0.0028 K0.0056
N12440 G1 Y2.3703 Z0.7487
N12445 Y2.3636 Z0.7474
N12450 Y2.3533 Z0.7447
N12455 Y2.3448 Z0.7415
N12460 Y2.3339 Z0.7365
N12465 Y2.3193 Z0.7271
N12470 Y2.3139 Z0.7225
N12475 Y2.306 Z0.7153
N12480 Y2.301 Z0.7094
N12485 Y2.2945 Z0.7012
N12490 Y2.2906 Z0.6948
N12495 Y2.2855 Z0.6853
N12500 Y2.274 Z0.6624
N12505 Y2.2664 Z0.6493
N12510 Y2.2543 Z0.631
N12515 Y2.2406 Z0.6132
N12520 Y2.2307 Z0.6017
N12525 Y2.2151 Z0.5859
N12530 Y2.1982 Z0.571
N12535 Y2.1863 Z0.5616
N12540 Y2.1678 Z0.549
N12545 Y2.1483 Z0.5376
N12550 Y2.1348 Z0.5306
N12555 Y2.1142 Z0.5217
N12560 Y2.1 Z0.5165
N12565 Y2.0783 Z0.51
N12570 Y2.0561 Z0.5052
N12575 Y2.0411 Z0.5028
N12580 Y2.0185 Z0.5006
N12585 Y2. Z0.5
N12590 Y1.9768 Z0.501
N12595 Y1.9624 Z0.5024
N12600 Y1.9407 Z0.5057
N12605 Y1.9191 Z0.5107
N12610 Y1.898 Z0.5173
N12615 Y1.881 Z0.5237
N12620 Y1.8642 Z0.5311
N12625 Y1.8447 Z0.5415
N12630 Y1.8291 Z0.551
N12635 Y1.814 Z0.5614
N12640 Y1.7967 Z0.5753
N12645 Y1.7832 Z0.5875
N12650 Y1.7677 Z0.6037
N12655 Y1.7556 Z0.6179
N12660 Y1.7446 Z0.6324
N12665 Y1.7323 Z0.6515
N12670 Y1.7231 Z0.6679
N12675 Y1.7125 Z0.6892
N12680 Y1.7061 Z0.7002
N12685 Y1.6972 Z0.7117
N12690 Y1.6909 Z0.7182
N12695 Y1.6812 Z0.7267
N12700 Y1.6688 Z0.735
N12705 Y1.6606 Z0.7392
N12710 Y1.6485 Z0.7442
N12715 Y1.6339 Z0.748
N12720 Y1.6246 Z0.7492
N12725 Y1.6179 Z0.7498
N12730 G2 Y1.6156 Z0.7504 J0.0005 K0.0062
N12735 G3 Y1.6129 Z0.751 J-0.0028 K-0.0056
N12740 G17 G2 X3.8026 I-0.01 J0.
N12745 G19 G2 Y1.6156 Z0.7504 J0. K-0.0063
N12750 G3 Y1.6179 Z0.7498 J0.0028 K0.0056
N12755 G1 Y1.6246 Z0.7492
N12760 Y1.6339 Z0.748
N12765 Y1.6485 Z0.7442
N12770 Y1.6606 Z0.7392
N12775 Y1.6688 Z0.735
N12780 Y1.6812 Z0.7267
N12785 Y1.6909 Z0.7182
N12790 Y1.6972 Z0.7117
N12795 Y1.7061 Z0.7002
N12800 Y1.7125 Z0.6892
N12805 Y1.7231 Z0.6679
N12810 Y1.7323 Z0.6515
N12815 Y1.7446 Z0.6324
N12820 Y1.7556 Z0.6179
N12825 Y1.7677 Z0.6037
N12830 Y1.7832 Z0.5875
N12835 Y1.7967 Z0.5753
N12840 Y1.814 Z0.5614
N12845 Y1.8291 Z0.551
N12850 Y1.8447 Z0.5415
N12855 Y1.8642 Z0.5311
N12860 Y1.881 Z0.5237
N12865 Y1.898 Z0.5173
N12870 Y1.9191 Z0.5107
N12875 Y1.9407 Z0.5057
N12880 Y1.9624 Z0.5024
N12885 Y1.9768 Z0.501
N12890 Y2. Z0.5
N12895 Y2.0188 Z0.5006
N12900 Y2.0414 Z0.5028
N12905 Y2.0564 Z0.5052
N12910 Y2.0786 Z0.5101
N12915 Y2.1003 Z0.5166
N12920 Y2.1145 Z0.5218
N12925 Y2.1352 Z0.5308
N12930 Y2.1486 Z0.5378
N12935 Y2.1682 Z0.5492
N12940 Y2.1866 Z0.5619
N12945 Y2.1985 Z0.5713
N12950 Y2.2154 Z0.5862
N12955 Y2.231 Z0.6021
N12960 Y2.2409 Z0.6136
N12965 Y2.2546 Z0.6314
N12970 Y2.2667 Z0.6498
N12975 Y2.2743 Z0.663
N12980 Y2.2849 Z0.6841
N12985 Y2.291 Z0.6954
N12990 Y2.2949 Z0.7017
N12995 Y2.3025 Z0.7114
N13000 Y2.3087 Z0.7178
N13005 Y2.3192 Z0.727
N13010 Y2.3337 Z0.7364
N13015 Y2.3463 Z0.7421
N13020 Y2.3531 Z0.7447
N13025 Y2.3634 Z0.7473
N13030 Y2.3702 Z0.7487
N13035 Y2.3822 Z0.7498
N13040 G3 Y2.3843 Z0.7504 J-0.0006 K0.0062
N13045 G2 Y2.3871 Z0.7511 J0.0028 K-0.0056
N13050 G17 G3 X3.7826 I-0.01 J0.
N13055 G19 G3 Y2.3843 Z0.7504 J0. K-0.0063
N13060 G2 Y2.3822 Z0.7498 J-0.0028 K0.0056
N13065 G1 Y2.3686 Z0.7484
N13070 Y2.352 Z0.7443
N13075 Y2.3455 Z0.7418
N13080 Y2.3358 Z0.7375
N13085 Y2.3293 Z0.7338
N13090 Y2.3179 Z0.726
N13095 Y2.3075 Z0.7168
N13100 Y2.3015 Z0.7101
N13105 Y2.2941 Z0.7004
N13110 Y2.2885 Z0.691
N13115 Y2.2852 Z0.6847
N13120 Y2.2755 Z0.6651
N13125 Y2.2642 Z0.6458
N13130 Y2.2558 Z0.6332
N13135 Y2.2425 Z0.6155
N13140 Y2.2276 Z0.5986
N13145 Y2.217 Z0.5878
N13150 Y2.2004 Z0.5728
N13155 Y2.1826 Z0.559
N13160 Y2.1701 Z0.5504
N13165 Y2.1509 Z0.5389
N13170 Y2.1306 Z0.5288
N13175 Y2.1167 Z0.5227
N13180 Y2.0955 Z0.5151
N13185 Y2.081 Z0.5108
N13190 Y2.0589 Z0.5056
N13195 Y2.0364 Z0.5023
N13200 Y2.0213 Z0.5008
N13205 Y1.9983 Z0.5001
N13210 Y1.9768 Z0.501
N13215 Y1.9624 Z0.5024
N13220 Y1.9407 Z0.5057
N13225 Y1.9191 Z0.5107
N13230 Y1.898 Z0.5173
N13235 Y1.881 Z0.5237
N13240 Y1.8642 Z0.5311
N13245 Y1.8447 Z0.5415
N13250 Y1.8291 Z0.551
N13255 Y1.814 Z0.5614
N13260 Y1.7967 Z0.5753
N13265 Y1.7832 Z0.5875
N13270 Y1.7677 Z0.6037
N13275 Y1.7556 Z0.6179
N13280 Y1.7446 Z0.6324
N13285 Y1.7323 Z0.6515
N13290 Y1.7231 Z0.6679
N13295 Y1.7125 Z0.6892
N13300 Y1.7061 Z0.7002
N13305 Y1.6972 Z0.7117
N13310 Y1.6909 Z0.7182
N13315 Y1.6812 Z0.7267
N13320 Y1.6688 Z0.735
N13325 Y1.6606 Z0.7392
N13330 Y1.6485 Z0.7442
N13335 Y1.6339 Z0.748
N13340 Y1.6246 Z0.7492
N13345 Y1.6179 Z0.7498
N13350 G2 Y1.6156 Z0.7504 J0.0005 K0.0062
N13355 G3 Y1.6129 Z0.751 J-0.0028 K-0.0056
N13360 G17 G2 X3.7626 I-0.01 J0.
N13365 G19 G2 Y1.6156 Z0.7504 J0. K-0.0063
N13370 G3 Y1.6179 Z0.7498 J0.0028 K0.0056
N13375 G1 Y1.6246 Z0.7492
N13380 Y1.6339 Z0.748
N13385 Y1.6485 Z0.7442
N13390 Y1.6606 Z0.7392
N13395 Y1.6688 Z0.735
N13400 Y1.6812 Z0.7267
N13405 Y1.6909 Z0.7182
N13410 Y1.6972 Z0.7117
N13415 Y1.7061 Z0.7002
N13420 Y1.7125 Z0.6892
N13425 Y1.7231 Z0.6679
N13430 Y1.7323 Z0.6515
N13435 Y1.7446 Z0.6324
N13440 Y1.7556 Z0.6179
N13445 Y1.7677 Z0.6037
N13450 Y1.7832 Z0.5875
N13455 Y1.7967 Z0.5753
N13460 Y1.814 Z0.5614
N13465 Y1.8291 Z0.551
N13470 Y1.8447 Z0.5415
N13475 Y1.8642 Z0.5311
N13480 Y1.881 Z0.5237
N13485 Y1.898 Z0.5173
N13490 Y1.9191 Z0.5107
N13495 Y1.9407 Z0.5057
N13500 Y1.9624 Z0.5024
N13505 Y1.9768 Z0.501
N13510 Y1.9983 Z0.5001
N13515 Y2.0213 Z0.5008
N13520 Y2.0364 Z0.5023
N13525 Y2.0589 Z0.5056
N13530 Y2.081 Z0.5108
N13535 Y2.0955 Z0.5151
N13540 Y2.1167 Z0.5227
N13545 Y2.1306 Z0.5288
N13550 Y2.1509 Z0.5389
N13555 Y2.1701 Z0.5504
N13560 Y2.1826 Z0.559
N13565 Y2.2004 Z0.5728
N13570 Y2.217 Z0.5878
N13575 Y2.2276 Z0.5986
N13580 Y2.2425 Z0.6155
N13585 Y2.2558 Z0.6332
N13590 Y2.2642 Z0.6458
N13595 Y2.2755 Z0.6651
N13600 Y2.2852 Z0.6847
N13605 Y2.2885 Z0.691
N13610 Y2.2941 Z0.7004
N13615 Y2.3015 Z0.7101
N13620 Y2.3075 Z0.7168
N13625 Y2.3179 Z0.726
N13630 Y2.3293 Z0.7338
N13635 Y2.3358 Z0.7375
N13640 Y2.3455 Z0.7418
N13645 Y2.352 Z0.7443
N13650 Y2.3686 Z0.7484
N13655 Y2.3822 Z0.7498
N13660 G3 Y2.3843 Z0.7504 J-0.0006 K0.0062
N13665 G2 Y2.387 Z0.751 J0.0028 K-0.0056
N13670 G17 G3 X3.7426 I-0.01 J0.
N13675 G19 G3 Y2.3843 Z0.7504 J0. K-0.0063
N13680 G2 Y2.3822 Z0.7498 J-0.0028 K0.0056
N13685 G1 Y2.3686 Z0.7484
N13690 Y2.352 Z0.7443
N13695 Y2.3455 Z0.7418
N13700 Y2.3358 Z0.7375
N13705 Y2.3293 Z0.7338
N13710 Y2.3179 Z0.726
N13715 Y2.3075 Z0.7168
N13720 Y2.3015 Z0.7101
N13725 Y2.2941 Z0.7004
N13730 Y2.2885 Z0.691
N13735 Y2.2852 Z0.6847
N13740 Y2.2755 Z0.6651
N13745 Y2.2642 Z0.6458
N13750 Y2.2558 Z0.6332
N13755 Y2.2425 Z0.6155
N13760 Y2.2276 Z0.5986
N13765 Y2.217 Z0.5878
N13770 Y2.2004 Z0.5728
N13775 Y2.1826 Z0.559
N13780 Y2.1701 Z0.5504
N13785 Y2.1509 Z0.5389
N13790 Y2.1306 Z0.5288
N13795 Y2.1167 Z0.5227
N13800 Y2.0955 Z0.5151
N13805 Y2.081 Z0.5108
N13810 Y2.0589 Z0.5056
N13815 Y2.0364 Z0.5023
N13820 Y2.0213 Z0.5008
N13825 Y1.9983 Z0.5001
N13830 Y1.9768 Z0.501
N13835 Y1.9624 Z0.5024
N13840 Y1.9407 Z0.5057
N13845 Y1.9191 Z0.5107
N13850 Y1.898 Z0.5173
N13855 Y1.881 Z0.5237
N13860 Y1.8642 Z0.5311
N13865 Y1.8447 Z0.5415
N13870 Y1.8291 Z0.551
N13875 Y1.814 Z0.5614
N13880 Y1.7967 Z0.5753
N13885 Y1.7832 Z0.5875
N13890 Y1.7677 Z0.6037
N13895 Y1.7556 Z0.6179
N13900 Y1.7446 Z0.6324
N13905 Y1.7323 Z0.6515
N13910 Y1.7231 Z0.6679
N13915 Y1.7125 Z0.6892
N13920 Y1.7061 Z0.7002
N13925 Y1.6972 Z0.7117
N13930 Y1.6909 Z0.7182
N13935 Y1.6812 Z0.7267
N13940 Y1.6688 Z0.735
N13945 Y1.6606 Z0.7392
N13950 Y1.6485 Z0.7442
N13955 Y1.6339 Z0.748
N13960 Y1.6246 Z0.7492
N13965 Y1.6179 Z0.7498
N13970 G2 Y1.6156 Z0.7504 J0.0005 K0.0062
N13975 G3 Y1.6129 Z0.751 J-0.0028 K-0.0056
N13980 G17 G2 X3.7226 I-0.01 J0.
N13985 G19 G2 Y1.6156 Z0.7504 J0. K-0.0063
N13990 G3 Y1.6179 Z0.7498 J0.0028 K0.0056
N13995 G1 Y1.6246 Z0.7492
N14000 Y1.6339 Z0.748
N14005 Y1.6485 Z0.7442
N14010 Y1.6606 Z0.7392
N14015 Y1.6688 Z0.735
N14020 Y1.6812 Z0.7267
N14025 Y1.6909 Z0.7182
N14030 Y1.6972 Z0.7117
N14035 Y1.7061 Z0.7002
N14040 Y1.7125 Z0.6892
N14045 Y1.7231 Z0.6679
N14050 Y1.7323 Z0.6515
N14055 Y1.7446 Z0.6324
N14060 Y1.7556 Z0.6179
N14065 Y1.7677 Z0.6037
N14070 Y1.7832 Z0.5875
N14075 Y1.7967 Z0.5753
N14080 Y1.814 Z0.5614
N14085 Y1.8291 Z0.551
N14090 Y1.8447 Z0.5415
N14095 Y1.8642 Z0.5311
N14100 Y1.881 Z0.5237
N14105 Y1.898 Z0.5173
N14110 Y1.9191 Z0.5107
N14115 Y1.9407 Z0.5057
N14120 Y1.9624 Z0.5024
N14125 Y1.9768 Z0.501
N14130 Y1.9983 Z0.5001
N14135 Y2.0213 Z0.5008
N14140 Y2.0364 Z0.5023
N14145 Y2.0589 Z0.5056
N14150 Y2.081 Z0.5108
N14155 Y2.0955 Z0.5151
N14160 Y2.1167 Z0.5227
N14165 Y2.1306 Z0.5288
N14170 Y2.1509 Z0.5389
N14175 Y2.1701 Z0.5504
N14180 Y2.1826 Z0.559
N14185 Y2.2004 Z0.5728
N14190 Y2.217 Z0.5878
N14195 Y2.2276 Z0.5986
N14200 Y2.2425 Z0.6155
N14205 Y2.2558 Z0.6332
N14210 Y2.2642 Z0.6458
N14215 Y2.2755 Z0.6651
N14220 Y2.2852 Z0.6847
N14225 Y2.2885 Z0.691
N14230 Y2.2941 Z0.7004
N14235 Y2.3015 Z0.7101
N14240 Y2.3075 Z0.7168
N14245 Y2.3179 Z0.726
N14250 Y2.3293 Z0.7338
N14255 Y2.3358 Z0.7375
N14260 Y2.3455 Z0.7418
N14265 Y2.352 Z0.7443
N14270 Y2.3686 Z0.7484
N14275 Y2.3822 Z0.7498
N14280 G3 Y2.3843 Z0.7504 J-0.0006 K0.0062
N14285 G2 Y2.387 Z0.751 J0.0028 K-0.0056
N14290 G17 G3 X3.7026 I-0.01 J0.
N14295 G19 G3 Y2.3843 Z0.7504 J0. K-0.0063
N14300 G2 Y2.3822 Z0.7498 J-0.0028 K0.0056
N14305 G1 Y2.3686 Z0.7484
N14310 Y2.352 Z0.7443
N14315 Y2.3455 Z0.7418
N14320 Y2.3358 Z0.7375
N14325 Y2.3293 Z0.7338
N14330 Y2.3179 Z0.726
N14335 Y2.3075 Z0.7168
N14340 Y2.3015 Z0.7101
N14345 Y2.2941 Z0.7004
N14350 Y2.2885 Z0.691
N14355 Y2.2852 Z0.6847
N14360 Y2.2755 Z0.6651
N14365 Y2.2642 Z0.6458
N14370 Y2.2558 Z0.6332
N14375 Y2.2425 Z0.6155
N14380 Y2.2276 Z0.5986
N14385 Y2.217 Z0.5878
N14390 Y2.2004 Z0.5728
N14395 Y2.1826 Z0.559
N14400 Y2.1701 Z0.5504
N14405 Y2.1509 Z0.5389
N14410 Y2.1306 Z0.5288
N14415 Y2.1167 Z0.5227
N14420 Y2.0955 Z0.5151
N14425 Y2.081 Z0.5108
N14430 Y2.0589 Z0.5056
N14435 Y2.0364 Z0.5023
N14440 Y2.0213 Z0.5008
N14445 Y1.9983 Z0.5001
N14450 Y1.9768 Z0.501
N14455 Y1.9624 Z0.5024
N14460 Y1.9407 Z0.5057
N14465 Y1.9191 Z0.5107
N14470 Y1.898 Z0.5173
N14475 Y1.881 Z0.5237
N14480 Y1.8642 Z0.5311
N14485 Y1.8447 Z0.5415
N14490 Y1.8291 Z0.551
N14495 Y1.814 Z0.5614
N14500 Y1.7967 Z0.5753
N14505 Y1.7832 Z0.5875
N14510 Y1.7677 Z0.6037
N14515 Y1.7556 Z0.6179
N14520 Y1.7446 Z0.6324
N14525 Y1.7323 Z0.6515
N14530 Y1.7231 Z0.6679
N14535 Y1.7125 Z0.6892
N14540 Y1.7061 Z0.7002
N14545 Y1.6972 Z0.7117
N14550 Y1.6909 Z0.7182
N14555 Y1.6812 Z0.7267
N14560 Y1.6688 Z0.735
N14565 Y1.6606 Z0.7392
N14570 Y1.6485 Z0.7442
N14575 Y1.6339 Z0.748
N14580 Y1.6246 Z0.7492
N14585 Y1.6179 Z0.7498
N14590 G2 Y1.6156 Z0.7504 J0.0005 K0.0062
N14595 G3 Y1.6129 Z0.751 J-0.0028 K-0.0056
N14600 G17 G2 X3.6826 I-0.01 J0.
N14605 G19 G2 Y1.6156 Z0.7504 J0. K-0.0063
N14610 G3 Y1.6179 Z0.7498 J0.0028 K0.0056
N14615 G1 Y1.6246 Z0.7492
N14620 Y1.6339 Z0.748
N14625 Y1.6485 Z0.7442
N14630 Y1.6606 Z0.7392
N14635 Y1.6688 Z0.735
N14640 Y1.6812 Z0.7267
N14645 Y1.6909 Z0.7182
N14650 Y1.6972 Z0.7117
N14655 Y1.7061 Z0.7002
N14660 Y1.7125 Z0.6892
N14665 Y1.7231 Z0.6679
N14670 Y1.7323 Z0.6515
N14675 Y1.7446 Z0.6324
N14680 Y1.7556 Z0.6179
N14685 Y1.7677 Z0.6037
N14690 Y1.7832 Z0.5875
N14695 Y1.7967 Z0.5753
N14700 Y1.814 Z0.5614
N14705 Y1.8291 Z0.551
N14710 Y1.8447 Z0.5415
N14715 Y1.8642 Z0.5311
N14720 Y1.881 Z0.5237
N14725 Y1.898 Z0.5173
N14730 Y1.9191 Z0.5107
N14735 Y1.9407 Z0.5057
N14740 Y1.9624 Z0.5024
N14745 Y1.9768 Z0.501
N14750 Y1.9983 Z0.5001
N14755 Y2.0213 Z0.5008
N14760 Y2.0364 Z0.5023
N14765 Y2.0589 Z0.5056
N14770 Y2.081 Z0.5108
N14775 Y2.0955 Z0.5151
N14780 Y2.1167 Z0.5227
N14785 Y2.1306 Z0.5288
N14790 Y2.1509 Z0.5389
N14795 Y2.1701 Z0.5504
N14800 Y2.1826 Z0.559
N14805 Y2.2004 Z0.5728
N14810 Y2.217 Z0.5878
N14815 Y2.2276 Z0.5986
N14820 Y2.2425 Z0.6155
N14825 Y2.2558 Z0.6332
N14830 Y2.2642 Z0.6458
N14835 Y2.2755 Z0.6651
N14840 Y2.2852 Z0.6847
N14845 Y2.2885 Z0.691
N14850 Y2.2941 Z0.7004
N14855 Y2.3015 Z0.7101
N14860 Y2.3075 Z0.7168
N14865 Y2.3179 Z0.726
N14870 Y2.3293 Z0.7338
N14875 Y2.3358 Z0.7375
N14880 Y2.3455 Z0.7418
N14885 Y2.352 Z0.7443
N14890 Y2.3686 Z0.7484
N14895 Y2.3822 Z0.7498
N14900 G3 Y2.3843 Z0.7504 J-0.0006 K0.0062
N14905 G2 Y2.387 Z0.751 J0.0028 K-0.0056
N14910 G17 G3 X3.6626 I-0.01 J0.
N14915 G19 G3 Y2.3843 Z0.7504 J0. K-0.0063
N14920 G2 Y2.3822 Z0.7498 J-0.0028 K0.0056
N14925 G1 Y2.3686 Z0.7484
N14930 Y2.352 Z0.7443
N14935 Y2.3455 Z0.7418
N14940 Y2.3358 Z0.7375
N14945 Y2.3293 Z0.7338
N14950 Y2.3179 Z0.726
N14955 Y2.3075 Z0.7168
N14960 Y2.3015 Z0.7101
N14965 Y2.2941 Z0.7004
N14970 Y2.2885 Z0.691
N14975 Y2.2852 Z0.6847
N14980 Y2.2755 Z0.6651
N14985 Y2.2642 Z0.6458
N14990 Y2.2558 Z0.6332
N14995 Y2.2425 Z0.6155
N15000 Y2.2276 Z0.5986
N15005 Y2.217 Z0.5878
N15010 Y2.2004 Z0.5728
N15015 Y2.1826 Z0.559
N15020 Y2.1701 Z0.5504
N15025 Y2.1509 Z0.5389
N15030 Y2.1306 Z0.5288
N15035 Y2.1167 Z0.5227
N15040 Y2.0955 Z0.5151
N15045 Y2.081 Z0.5108
N15050 Y2.0589 Z0.5056
N15055 Y2.0364 Z0.5023
N15060 Y2.0213 Z0.5008
N15065 Y1.9983 Z0.5001
N15070 Y1.9768 Z0.501
N15075 Y1.9624 Z0.5024
N15080 Y1.9407 Z0.5057
N15085 Y1.9191 Z0.5107
N15090 Y1.898 Z0.5173
N15095 Y1.881 Z0.5237
N15100 Y1.8642 Z0.5311
N15105 Y1.8447 Z0.5415
N15110 Y1.8291 Z0.551
N15115 Y1.814 Z0.5614
N15120 Y1.7967 Z0.5753
N15125 Y1.7832 Z0.5875
N15130 Y1.7677 Z0.6037
N15135 Y1.7556 Z0.6179
N15140 Y1.7446 Z0.6324
N15145 Y1.7323 Z0.6515
N15150 Y1.7231 Z0.6679
N15155 Y1.7125 Z0.6892
N15160 Y1.7061 Z0.7002
N15165 Y1.6972 Z0.7117
N15170 Y1.6909 Z0.7182
N15175 Y1.6812 Z0.7267
N15180 Y1.6688 Z0.735
N15185 Y1.6606 Z0.7392
N15190 Y1.6485 Z0.7442
N15195 Y1.6339 Z0.748
N15200 Y1.6246 Z0.7492
N15205 Y1.6179 Z0.7498
N15210 G2 Y1.6156 Z0.7504 J0.0005 K0.0062
N15215 G3 Y1.6129 Z0.751 J-0.0028 K-0.0056
N15220 G17 G2 X3.6427 I-0.01 J0.
N15225 G19 G2 Y1.6156 Z0.7504 J0. K-0.0063
N15230 G3 Y1.6179 Z0.7498 J0.0028 K0.0056
N15235 G1 Y1.6246 Z0.7492
N15240 Y1.6339 Z0.748
N15245 Y1.6485 Z0.7442
N15250 Y1.6606 Z0.7392
N15255 Y1.6688 Z0.735
N15260 Y1.6812 Z0.7267
N15265 Y1.6909 Z0.7182
N15270 Y1.6972 Z0.7117
N15275 Y1.7061 Z0.7002
N15280 Y1.7125 Z0.6892
N15285 Y1.7231 Z0.6679
N15290 Y1.7323 Z0.6515
N15295 Y1.7446 Z0.6324
N15300 Y1.7556 Z0.6179
N15305 Y1.7677 Z0.6037
N15310 Y1.7832 Z0.5875
N15315 Y1.7967 Z0.5753
N15320 Y1.814 Z0.5614
N15325 Y1.8291 Z0.551
N15330 Y1.8447 Z0.5415
N15335 Y1.8642 Z0.5311
N15340 Y1.881 Z0.5237
N15345 Y1.898 Z0.5173
N15350 Y1.9191 Z0.5107
N15355 Y1.9407 Z0.5057
N15360 Y1.9624 Z0.5024
N15365 Y1.9768 Z0.501
N15370 Y1.9983 Z0.5001
N15375 Y2.0213 Z0.5008
N15380 Y2.0364 Z0.5023
N15385 Y2.0589 Z0.5056
N15390 Y2.081 Z0.5108
N15395 Y2.0955 Z0.5151
N15400 Y2.1167 Z0.5227
N15405 Y2.1306 Z0.5288
N15410 Y2.1509 Z0.5389
N15415 Y2.1701 Z0.5504
N15420 Y2.1826 Z0.559
N15425 Y2.2004 Z0.5728
N15430 Y2.217 Z0.5878
N15435 Y2.2276 Z0.5986
N15440 Y2.2425 Z0.6155
N15445 Y2.2558 Z0.6332
N15450 Y2.2642 Z0.6458
N15455 Y2.2755 Z0.6651
N15460 Y2.2852 Z0.6847
N15465 Y2.2885 Z0.691
N15470 Y2.2941 Z0.7004
N15475 Y2.3015 Z0.7101
N15480 Y2.3075 Z0.7168
N15485 Y2.3179 Z0.726
N15490 Y2.3293 Z0.7338
N15495 Y2.3358 Z0.7375
N15500 Y2.3455 Z0.7418
N15505 Y2.352 Z0.7443
N15510 Y2.3686 Z0.7484
N15515 Y2.3822 Z0.7498
N15520 G3 Y2.3843 Z0.7504 J-0.0006 K0.0062
N15525 G2 Y2.387 Z0.751 J0.0028 K-0.0056
N15530 G17 G3 X3.6227 I-0.01 J0.
N15535 G19 G3 Y2.3843 Z0.7504 J0. K-0.0063
N15540 G2 Y2.3822 Z0.7498 J-0.0028 K0.0056
N15545 G1 Y2.3686 Z0.7484
N15550 Y2.352 Z0.7443
N15555 Y2.3455 Z0.7418
N15560 Y2.3358 Z0.7375
N15565 Y2.3293 Z0.7338
N15570 Y2.3179 Z0.726
N15575 Y2.3075 Z0.7168
N15580 Y2.3015 Z0.7101
N15585 Y2.2941 Z0.7004
N15590 Y2.2885 Z0.691
N15595 Y2.2852 Z0.6847
N15600 Y2.2755 Z0.6651
N15605 Y2.2642 Z0.6458
N15610 Y2.2558 Z0.6332
N15615 Y2.2425 Z0.6155
N15620 Y2.2276 Z0.5986
N15625 Y2.217 Z0.5878
N15630 Y2.2004 Z0.5728
N15635 Y2.1826 Z0.559
N15640 Y2.1701 Z0.5504
N15645 Y2.1509 Z0.5389
N15650 Y2.1306 Z0.5288
N15655 Y2.1167 Z0.5227
N15660 Y2.0955 Z0.5151
N15665 Y2.081 Z0.5108
N15670 Y2.0589 Z0.5056
N15675 Y2.0364 Z0.5023
N15680 Y2.0213 Z0.5008
N15685 Y1.9983 Z0.5001
N15690 Y1.9768 Z0.501
N15695 Y1.9624 Z0.5024
N15700 Y1.9407 Z0.5057
N15705 Y1.9191 Z0.5107
N15710 Y1.898 Z0.5173
N15715 Y1.881 Z0.5237
N15720 Y1.8642 Z0.5311
N15725 Y1.8447 Z0.5415
N15730 Y1.8291 Z0.551
N15735 Y1.814 Z0.5614
N15740 Y1.7967 Z0.5753
N15745 Y1.7832 Z0.5875
N15750 Y1.7677 Z0.6037
N15755 Y1.7556 Z0.6179
N15760 Y1.7446 Z0.6324
N15765 Y1.7323 Z0.6515
N15770 Y1.7231 Z0.6679
N15775 Y1.7125 Z0.6892
N15780 Y1.7061 Z0.7002
N15785 Y1.6972 Z0.7117
N15790 Y1.6909 Z0.7182
N15795 Y1.6812 Z0.7267
N15800 Y1.6688 Z0.735
N15805 Y1.6606 Z0.7392
N15810 Y1.6485 Z0.7442
N15815 Y1.6339 Z0.748
N15820 Y1.6246 Z0.7492
N15825 Y1.6179 Z0.7498
N15830 G2 Y1.6156 Z0.7504 J0.0005 K0.0062
N15835 G3 Y1.6129 Z0.751 J-0.0028 K-0.0056
N15840 G17 G2 X3.6027 I-0.01 J0.
N15845 G19 G2 Y1.6156 Z0.7504 J0. K-0.0063
N15850 G3 Y1.6179 Z0.7498 J0.0028 K0.0056
N15855 G1 Y1.6246 Z0.7492
N15860 Y1.6339 Z0.748
N15865 Y1.6485 Z0.7442
N15870 Y1.6606 Z0.7392
N15875 Y1.6688 Z0.735
N15880 Y1.6812 Z0.7267
N15885 Y1.6909 Z0.7182
N15890 Y1.6972 Z0.7117
N15895 Y1.7061 Z0.7002
N15900 Y1.7125 Z0.6892
N15905 Y1.7231 Z0.6679
N15910 Y1.7323 Z0.6515
N15915 Y1.7446 Z0.6324
N15920 Y1.7556 Z0.6179
N15925 Y1.7677 Z0.6037
N15930 Y1.7832 Z0.5875
N15935 Y1.7967 Z0.5753
N15940 Y1.814 Z0.5614
N15945 Y1.8291 Z0.551
N15950 Y1.8447 Z0.5415
N15955 Y1.8642 Z0.5311
N15960 Y1.881 Z0.5237
N15965 Y1.898 Z0.5173
N15970 Y1.9191 Z0.5107
N15975 Y1.9407 Z0.5057
N15980 Y1.9624 Z0.5024
N15985 Y1.9768 Z0.501
N15990 Y1.9983 Z0.5001
N15995 Y2.0213 Z0.5008
N16000 Y2.0364 Z0.5023
N16005 Y2.0589 Z0.5056
N16010 Y2.081 Z0.5108
N16015 Y2.0955 Z0.5151
N16020 Y2.1167 Z0.5227
N16025 Y2.1306 Z0.5288
N16030 Y2.1509 Z0.5389
N16035 Y2.1701 Z0.5504
N16040 Y2.1826 Z0.559
N16045 Y2.2004 Z0.5728
N16050 Y2.217 Z0.5878
N16055 Y2.2276 Z0.5986
N16060 Y2.2425 Z0.6155
N16065 Y2.2558 Z0.6332
N16070 Y2.2642 Z0.6458
N16075 Y2.2755 Z0.6651
N16080 Y2.2852 Z0.6847
N16085 Y2.2885 Z0.691
N16090 Y2.2941 Z0.7004
N16095 Y2.3015 Z0.7101
N16100 Y2.3075 Z0.7168
N16105 Y2.3179 Z0.726
N16110 Y2.3293 Z0.7338
N16115 Y2.3358 Z0.7375
N16120 Y2.3455 Z0.7418
N16125 Y2.352 Z0.7443
N16130 Y2.3686 Z0.7484
N16135 Y2.3822 Z0.7498
N16140 G3 Y2.3843 Z0.7504 J-0.0006 K0.0062
N16145 G2 Y2.387 Z0.751 J0.0028 K-0.0056
N16150 G17 G3 X3.5827 I-0.01 J0.
N16155 G19 G3 Y2.3843 Z0.7504 J0. K-0.0063
N16160 G2 Y2.3822 Z0.7498 J-0.0028 K0.0056
N16165 G1 Y2.3686 Z0.7484
N16170 Y2.352 Z0.7443
N16175 Y2.3455 Z0.7418
N16180 Y2.3358 Z0.7375
N16185 Y2.3293 Z0.7338
N16190 Y2.3179 Z0.726
N16195 Y2.3075 Z0.7168
N16200 Y2.3015 Z0.7101
N16205 Y2.2941 Z0.7004
N16210 Y2.2885 Z0.691
N16215 Y2.2852 Z0.6847
N16220 Y2.2755 Z0.6651
N16225 Y2.2642 Z0.6458
N16230 Y2.2558 Z0.6332
N16235 Y2.2425 Z0.6155
N16240 Y2.2276 Z0.5986
N16245 Y2.217 Z0.5878
N16250 Y2.2004 Z0.5728
N16255 Y2.1826 Z0.559
N16260 Y2.1701 Z0.5504
N16265 Y2.1509 Z0.5389
N16270 Y2.1306 Z0.5288
N16275 Y2.1167 Z0.5227
N16280 Y2.0955 Z0.5151
N16285 Y2.081 Z0.5108
N16290 Y2.0589 Z0.5056
N16295 Y2.0364 Z0.5023
N16300 Y2.0213 Z0.5008
N16305 Y1.9983 Z0.5001
N16310 Y1.9768 Z0.501
N16315 Y1.9624 Z0.5024
N16320 Y1.9407 Z0.5057
N16325 Y1.9191 Z0.5107
N16330 Y1.898 Z0.5173
N16335 Y1.881 Z0.5237
N16340 Y1.8642 Z0.5311
N16345 Y1.8447 Z0.5415
N16350 Y1.8291 Z0.551
N16355 Y1.814 Z0.5614
N16360 Y1.7967 Z0.5753
N16365 Y1.7832 Z0.5875
N16370 Y1.7677 Z0.6037
N16375 Y1.7556 Z0.6179
N16380 Y1.7446 Z0.6324
N16385 Y1.7323 Z0.6515
N16390 Y1.7231 Z0.6679
N16395 Y1.7125 Z0.6892
N16400 Y1.7061 Z0.7002
N16405 Y1.6972 Z0.7117
N16410 Y1.6909 Z0.7182
N16415 Y1.6812 Z0.7267
N16420 Y1.6688 Z0.735
N16425 Y1.6606 Z0.7392
N16430 Y1.6485 Z0.7442
N16435 Y1.6339 Z0.748
N16440 Y1.6246 Z0.7492
N16445 Y1.6179 Z0.7498
N16450 G2 Y1.6156 Z0.7504 J0.0005 K0.0062
N16455 G3 Y1.6129 Z0.751 J-0.0028 K-0.0056
N16460 G17 G2 X3.5627 I-0.01 J0.
N16465 G19 G2 Y1.6156 Z0.7504 J0. K-0.0063
N16470 G3 Y1.6179 Z0.7498 J0.0028 K0.0056
N16475 G1 Y1.6246 Z0.7492
N16480 Y1.6339 Z0.748
N16485 Y1.6485 Z0.7442
N16490 Y1.6606 Z0.7392
N16495 Y1.6688 Z0.735
N16500 Y1.6812 Z0.7267
N16505 Y1.6909 Z0.7182
N16510 Y1.6972 Z0.7117
N16515 Y1.7061 Z0.7002
N16520 Y1.7125 Z0.6892
N16525 Y1.7231 Z0.6679
N16530 Y1.7323 Z0.6515
N16535 Y1.7446 Z0.6324
N16540 Y1.7556 Z0.6179
N16545 Y1.7677 Z0.6037
N16550 Y1.7832 Z0.5875
N16555 Y1.7967 Z0.5753
N16560 Y1.814 Z0.5614
N16565 Y1.8291 Z0.551
N16570 Y1.8447 Z0.5415
N16575 Y1.8642 Z0.5311
N16580 Y1.881 Z0.5237
N16585 Y1.898 Z0.5173
N16590 Y1.9191 Z0.5107
N16595 Y1.9407 Z0.5057
N16600 Y1.9624 Z0.5024
N16605 Y1.9768 Z0.501
N16610 Y1.9983 Z0.5001
N16615 Y2.0213 Z0.5008
N16620 Y2.0364 Z0.5023
N16625 Y2.0589 Z0.5056
N16630 Y2.081 Z0.5108
N16635 Y2.0955 Z0.5151
N16640 Y2.1167 Z0.5227
N16645 Y2.1306 Z0.5288
N16650 Y2.1509 Z0.5389
N16655 Y2.1701 Z0.5504
N16660 Y2.1826 Z0.559
N16665 Y2.2004 Z0.5728
N16670 Y2.217 Z0.5878
N16675 Y2.2276 Z0.5986
N16680 Y2.2425 Z0.6155
N16685 Y2.2558 Z0.6332
N16690 Y2.2642 Z0.6458
N16695 Y2.2755 Z0.6651
N16700 Y2.2852 Z0.6847
N16705 Y2.2885 Z0.691
N16710 Y2.2941 Z0.7004
N16715 Y2.3015 Z0.7101
N16720 Y2.3075 Z0.7168
N16725 Y2.3179 Z0.726
N16730 Y2.3293 Z0.7338
N16735 Y2.3358 Z0.7375
N16740 Y2.3455 Z0.7418
N16745 Y2.352 Z0.7443
N16750 Y2.3686 Z0.7484
N16755 Y2.3822 Z0.7498
N16760 G3 Y2.3843 Z0.7504 J-0.0006 K0.0062
N16765 G2 Y2.387 Z0.751 J0.0028 K-0.0056
N16770 G17 G3 X3.5427 I-0.01 J0.
N16775 G19 G3 Y2.3843 Z0.7504 J0. K-0.0063
N16780 G2 Y2.3822 Z0.7498 J-0.0028 K0.0056
N16785 G1 Y2.3686 Z0.7484
N16790 Y2.352 Z0.7443
N16795 Y2.3455 Z0.7418
N16800 Y2.3358 Z0.7375
N16805 Y2.3293 Z0.7338
N16810 Y2.3179 Z0.726
N16815 Y2.3075 Z0.7168
N16820 Y2.3015 Z0.7101
N16825 Y2.2941 Z0.7004
N16830 Y2.2885 Z0.691
N16835 Y2.2852 Z0.6847
N16840 Y2.2755 Z0.6651
N16845 Y2.2642 Z0.6458
N16850 Y2.2558 Z0.6332
N16855 Y2.2425 Z0.6155
N16860 Y2.2276 Z0.5986
N16865 Y2.217 Z0.5878
N16870 Y2.2004 Z0.5728
N16875 Y2.1826 Z0.559
N16880 Y2.1701 Z0.5504
N16885 Y2.1509 Z0.5389
N16890 Y2.1306 Z0.5288
N16895 Y2.1167 Z0.5227
N16900 Y2.0955 Z0.5151
N16905 Y2.081 Z0.5108
N16910 Y2.0589 Z0.5056
N16915 Y2.0364 Z0.5023
N16920 Y2.0213 Z0.5008
N16925 Y1.9983 Z0.5001
N16930 Y1.9768 Z0.501
N16935 Y1.9624 Z0.5024
N16940 Y1.9407 Z0.5057
N16945 Y1.9191 Z0.5107
N16950 Y1.898 Z0.5173
N16955 Y1.881 Z0.5237
N16960 Y1.8642 Z0.5311
N16965 Y1.8447 Z0.5415
N16970 Y1.8291 Z0.551
N16975 Y1.814 Z0.5614
N16980 Y1.7967 Z0.5753
N16985 Y1.7832 Z0.5875
N16990 Y1.7677 Z0.6037
N16995 Y1.7556 Z0.6179
N17000 Y1.7446 Z0.6324
N17005 Y1.7323 Z0.6515
N17010 Y1.7231 Z0.6679
N17015 Y1.7125 Z0.6892
N17020 Y1.7061 Z0.7002
N17025 Y1.6972 Z0.7117
N17030 Y1.6909 Z0.7182
N17035 Y1.6812 Z0.7267
N17040 Y1.6688 Z0.735
N17045 Y1.6606 Z0.7392
N17050 Y1.6485 Z0.7442
N17055 Y1.6339 Z0.748
N17060 Y1.6246 Z0.7492
N17065 Y1.6179 Z0.7498
N17070 G2 Y1.6156 Z0.7504 J0.0005 K0.0062
N17075 G3 Y1.6129 Z0.751 J-0.0028 K-0.0056
N17080 G17 G2 X3.5227 I-0.01 J0.
N17085 G19 G2 Y1.6156 Z0.7504 J0. K-0.0063
N17090 G3 Y1.6179 Z0.7498 J0.0028 K0.0056
N17095 G1 Y1.6246 Z0.7492
N17100 Y1.6339 Z0.748
N17105 Y1.6485 Z0.7442
N17110 Y1.6606 Z0.7392
N17115 Y1.6688 Z0.735
N17120 Y1.6812 Z0.7267
N17125 Y1.6909 Z0.7182
N17130 Y1.6972 Z0.7117
N17135 Y1.7061 Z0.7002
N17140 Y1.7125 Z0.6892
N17145 Y1.7231 Z0.6679
N17150 Y1.7323 Z0.6515
N17155 Y1.7446 Z0.6324
N17160 Y1.7556 Z0.6179
N17165 Y1.7677 Z0.6037
N17170 Y1.7832 Z0.5875
N17175 Y1.7967 Z0.5753
N17180 Y1.814 Z0.5614
N17185 Y1.8291 Z0.551
N17190 Y1.8447 Z0.5415
N17195 Y1.8642 Z0.5311
N17200 Y1.881 Z0.5237
N17205 Y1.898 Z0.5173
N17210 Y1.9191 Z0.5107
N17215 Y1.9407 Z0.5057
N17220 Y1.9624 Z0.5024
N17225 Y1.9768 Z0.501
N17230 Y1.9983 Z0.5001
N17235 Y2.0213 Z0.5008
N17240 Y2.0364 Z0.5023
N17245 Y2.0589 Z0.5056
N17250 Y2.081 Z0.5108
N17255 Y2.0955 Z0.5151
N17260 Y2.1167 Z0.5227
N17265 Y2.1306 Z0.5288
N17270 Y2.1509 Z0.5389
N17275 Y2.1701 Z0.5504
N17280 Y2.1826 Z0.559
N17285 Y2.2004 Z0.5728
N17290 Y2.217 Z0.5878
N17295 Y2.2276 Z0.5986
N17300 Y2.2425 Z0.6155
N17305 Y2.2558 Z0.6332
N17310 Y2.2642 Z0.6458
N17315 Y2.2755 Z0.6651
N17320 Y2.2852 Z0.6847
N17325 Y2.2885 Z0.691
N17330 Y2.2941 Z0.7004
N17335 Y2.3015 Z0.7101
N17340 Y2.3075 Z0.7168
N17345 Y2.3179 Z0.726
N17350 Y2.3293 Z0.7338
N17355 Y2.3358 Z0.7375
N17360 Y2.3455 Z0.7418
N17365 Y2.352 Z0.7443
N17370 Y2.3686 Z0.7484
N17375 Y2.3822 Z0.7498
N17380 G3 Y2.3843 Z0.7504 J-0.0006 K0.0062
N17385 G2 Y2.387 Z0.751 J0.0028 K-0.0056
N17390 G17 G3 X3.5027 I-0.01 J0.
N17395 G19 G3 Y2.3843 Z0.7504 J0. K-0.0063
N17400 G2 Y2.3822 Z0.7498 J-0.0028 K0.0056
N17405 G1 Y2.3686 Z0.7484
N17410 Y2.352 Z0.7443
N17415 Y2.3455 Z0.7418
N17420 Y2.3358 Z0.7375
N17425 Y2.3293 Z0.7338
N17430 Y2.3179 Z0.726
N17435 Y2.3075 Z0.7168
N17440 Y2.3015 Z0.7101
N17445 Y2.2941 Z0.7004
N17450 Y2.2885 Z0.691
N17455 Y2.2852 Z0.6847
N17460 Y2.2755 Z0.6651
N17465 Y2.2642 Z0.6458
N17470 Y2.2558 Z0.6332
N17475 Y2.2425 Z0.6155
N17480 Y2.2276 Z0.5986
N17485 Y2.217 Z0.5878
N17490 Y2.2004 Z0.5728
N17495 Y2.1826 Z0.559
N17500 Y2.1701 Z0.5504
N17505 Y2.1509 Z0.5389
N17510 Y2.1306 Z0.5288
N17515 Y2.1167 Z0.5227
N17520 Y2.0955 Z0.5151
N17525 Y2.081 Z0.5108
N17530 Y2.0589 Z0.5056
N17535 Y2.0364 Z0.5023
N17540 Y2.0213 Z0.5008
N17545 Y1.9983 Z0.5001
N17550 Y1.9768 Z0.501
N17555 Y1.9624 Z0.5024
N17560 Y1.9407 Z0.5057
N17565 Y1.9191 Z0.5107
N17570 Y1.898 Z0.5173
N17575 Y1.881 Z0.5237
N17580 Y1.8642 Z0.5311
N17585 Y1.8447 Z0.5415
N17590 Y1.8291 Z0.551
N17595 Y1.814 Z0.5614
N17600 Y1.7967 Z0.5753
N17605 Y1.7832 Z0.5875
N17610 Y1.7677 Z0.6037
N17615 Y1.7556 Z0.6179
N17620 Y1.7446 Z0.6324
N17625 Y1.7323 Z0.6515
N17630 Y1.7231 Z0.6679
N17635 Y1.7125 Z0.6892
N17640 Y1.7061 Z0.7002
N17645 Y1.6972 Z0.7117
N17650 Y1.6909 Z0.7182
N17655 Y1.6812 Z0.7267
N17660 Y1.6688 Z0.735
N17665 Y1.6606 Z0.7392
N17670 Y1.6485 Z0.7442
N17675 Y1.6339 Z0.748
N17680 Y1.6246 Z0.7492
N17685 Y1.6179 Z0.7498
N17690 G2 Y1.6156 Z0.7504 J0.0005 K0.0062
N17695 G3 Y1.6129 Z0.751 J-0.0028 K-0.0056
N17700 G17 G2 X3.4827 I-0.01 J0.
N17705 G19 G2 Y1.6156 Z0.7504 J0. K-0.0063
N17710 G3 Y1.6179 Z0.7498 J0.0028 K0.0056
N17715 G1 Y1.6246 Z0.7492
N17720 Y1.6339 Z0.748
N17725 Y1.6485 Z0.7442
N17730 Y1.6606 Z0.7392
N17735 Y1.6688 Z0.735
N17740 Y1.6812 Z0.7267
N17745 Y1.6909 Z0.7182
N17750 Y1.6972 Z0.7117
N17755 Y1.7061 Z0.7002
N17760 Y1.7125 Z0.6892
N17765 Y1.7231 Z0.6679
N17770 Y1.7323 Z0.6515
N17775 Y1.7446 Z0.6324
N17780 Y1.7556 Z0.6179
N17785 Y1.7677 Z0.6037
N17790 Y1.7832 Z0.5875
N17795 Y1.7967 Z0.5753
N17800 Y1.814 Z0.5614
N17805 Y1.8291 Z0.551
N17810 Y1.8447 Z0.5415
N17815 Y1.8642 Z0.5311
N17820 Y1.881 Z0.5237
N17825 Y1.898 Z0.5173
N17830 Y1.9191 Z0.5107
N17835 Y1.9407 Z0.5057
N17840 Y1.9624 Z0.5024
N17845 Y1.9768 Z0.501
N17850 Y1.9983 Z0.5001
N17855 Y2.0213 Z0.5008
N17860 Y2.0364 Z0.5023
N17865 Y2.0589 Z0.5056
N17870 Y2.081 Z0.5108
N17875 Y2.0955 Z0.5151
N17880 Y2.1167 Z0.5227
N17885 Y2.1306 Z0.5288
N17890 Y2.1509 Z0.5389
N17895 Y2.1701 Z0.5504
N17900 Y2.1826 Z0.559
N17905 Y2.2004 Z0.5728
N17910 Y2.217 Z0.5878
N17915 Y2.2276 Z0.5986
N17920 Y2.2425 Z0.6155
N17925 Y2.2558 Z0.6332
N17930 Y2.2642 Z0.6458
N17935 Y2.2755 Z0.6651
N17940 Y2.2852 Z0.6847
N17945 Y2.2885 Z0.691
N17950 Y2.2941 Z0.7004
N17955 Y2.3015 Z0.7101
N17960 Y2.3075 Z0.7168
N17965 Y2.3179 Z0.726
N17970 Y2.3293 Z0.7338
N17975 Y2.3358 Z0.7375
N17980 Y2.3455 Z0.7418
N17985 Y2.352 Z0.7443
N17990 Y2.3686 Z0.7484
N17995 Y2.3822 Z0.7498
N18000 G3 Y2.3843 Z0.7504 J-0.0006 K0.0062
N18005 G2 Y2.387 Z0.751 J0.0028 K-0.0056
N18010 G17 G3 X3.4627 I-0.01 J0.
N18015 G19 G3 Y2.3843 Z0.7504 J0. K-0.0063
N18020 G2 Y2.3822 Z0.7498 J-0.0028 K0.0056
N18025 G1 Y2.3686 Z0.7484
